ryan-jiang-tks/RoboHand/data/demo2.csv
frame, time,Joint1: JointValue (degree),Joint1: JointVel (degree/s),Joint1: JointAccl (degree/s^2),Joint2: JointValue (degree),Joint2: JointVel (degree/s),Joint2: JointAccl (degree/s^2),Joint3: JointValue (degree),Joint3: JointVel (degree/s),Joint3: JointAccl (degree/s^2),Joint4: JointValue (degree),Joint4: JointVel (degree/s),Joint4: JointAccl (degree/s^2),Joint5: JointValue (degree),Joint5: JointVel (degree/s),Joint5: JointAccl (degree/s^2),Joint6: JointValue (degree),Joint6: JointVel (degree/s),Joint6: JointAccl (degree/s^2),
1,0,0,0,0,60,0,0,60,0,0,0,0,0,0,0,0,0,0,0,
2,0.00314629258517034,4.76591086992367E-06,0.0045442871762564,2.88862336400091,59.9999936454522,-0.00605904956834187,-3.85149781866788,59.9999992056815,-0.000757381196042734,-0.481437227333485,0,0,0,1.58863695664122E-06,0.00151476239208547,0.962874454666969,0,0,0,
3,0.00629258517034068,3.81263802229697E-05,0.0181764282304157,5.77678875083398,59.9999491648264,-0.0242352376405543,-7.70238500111197,59.9999936456033,-0.00302940470506928,-0.962798125138996,0,0,0,1.27087934076566E-05,0.00605880941013857,1.92559625027799,0,0,0,
4,0.00943887775551102,0.000128671433014199,0.0408942618529071,8.66403825594142,59.9998284380893,-0.0545256824705428,-11.5520510079219,59.9999785547612,-0.00681571030881785,-1.44400637599024,0,0,0,4.28904776713997E-05,0.0136314206176357,2.88801275198047,0,0,0,
5,0.0125851703406814,0.000304982027861522,0.0726941862418293,11.549914119974,59.9995933572962,-0.0969255816557724,-15.3998854932987,59.999949169662,-0.0121156977069715,-1.92498568666234,0,0,0,0.000101660675953841,0.0242313954139431,3.84997137332467,0,0,0,
6,0.0157314629258517,0.000595625525673851,0.113571159674029,14.4339588013667,59.9992058326324,-0.151428212898705,-19.2452784018223,59.9999007290791,-0.0189285266123381,-2.40565980022778,0,0,0,0.000198541841891284,0.0378570532246762,4.81131960045556,0,0,0,
7,0.018877755511022,0.00102915116043483,0.163518701304415,17.3157150488794,59.9986277984528,-0.218024935072554,-23.0876200651726,59.9998284748066,-0.0272531168840692,-2.88595250814657,0,0,0,0.00034305038681161,0.0545062337681384,5.77190501629314,0,0,0,
8,0.0220240480961924,0.0016340855128615,0.222528892193504,20.1947259740923,59.9978212193162,-0.296705189591339,-26.9263012987897,59.9997276524145,-0.0370881486989173,-3.36578766234871,0,0,0,0.000544695170953834,0.0741762973978347,6.73157532469742,0,0,0,
9,0.0251703406813627,0.0024389279876527,0.290592376562869,23.0705351238427,59.9967480960165,-0.387456502083826,-30.760713498457,59.9995935120021,-0.0484320627604782,-3.84508918730712,0,0,0,0.000812975995884235,0.0968641255209564,7.69017837461424,0,0,0,
10,0.0283166332665331,0.00347214629504911,0.367698363278525,25.9426865525942,59.9953704716066,-0.490264484371366,-34.5902487367923,59.9994213089508,-0.0612830605464207,-4.32378109209904,0,0,0,0.0011573820983497,0.122566121092842,8.64756218419807,0,0,0,
11,0.0314629258517034,0.00476217193741373,0.453834627561745,28.810724894724,59.9936504374168,-0.605112836748994,-38.4142998596321,59.9992063046771,-0.0756391045936242,-4.80178748245401,0,0,0,0.00158739064580458,0.151278209187248,9.60357496490801,0,0,0,
12,0.0346092184368738,0.00633739570155863,0.548987512927284,31.6741954367193,59.9915501390646,-0.731983350569711,-42.2322605822925,59.9989437673831,-0.0914979188212139,-5.27903257278656,0,0,0,0.00211246523385288,0.182995837642428,10.5580651455731,0,0,0,
13,0.0377555110220441,0.00822616315752127,0.65314193334852,34.5326441892697,59.9890317824566,-0.87085591113136,-46.043525585693,59.9986289728071,-0.10885698889142,-5.75544069821162,0,0,0,0.00274205438584042,0.21771397778284,11.5108813964232,0,0,0,
14,0.0409018036072144,0.0104567701645151,0.76628137564929,37.385617959245,59.9860576397806,-1.02170850086572,-49.8474906123267,59.9982572049726,-0.127713562608215,-6.23093632654084,0,0,0,0.00348559005483836,0.25542712521643,12.4618726530817,0,0,0,
15,0.0440480961923848,0.0130574583847551,0.88838790212197,40.232664421547,59.982590055487,-1.18451720282929,-53.6435525620626,59.9978237569359,-0.148064650353662,-6.70544407025783,0,0,0,0.0043524861282517,0.296129300707323,13.4108881405157,0,0,0,
16,0.0471943887775551,0.0160564108058852,1.0194421533714,43.073332190823,59.9785914522588,-1.3592562044952,-57.431109587764,59.9973239315324,-0.1699070255619,-7.1788886984705,0,0,0,0.00535213693529507,0.339814051123801,14.357777396941,0,0,0,
17,0.0503406813627255,0.019481747272696,1.15942335138423,45.9071708930313,59.9740243369697,-1.54589780184563,-61.2095611907084,59.9967530421212,-0.193237225230704,-7.65119514883855,0,0,0,0.00649391575756534,0.386474450461408,15.3023902976771,0,0,0,
18,0.0534869739478958,0.0233615200288672,1.30830930282316,48.7337312368453,59.9688513066282,-1.74441240376421,-64.9783083157938,59.9961064133285,-0.218051550470526,-8.12228853947422,0,0,0,0.00778717334295573,0.436103100941052,16.2445770789484,0,0,0,
19,0.0566332665330661,0.027723709269416,1.46607640254563,51.552565084887,59.9630350543074,-1.9547685367275,-68.736753446516,59.9953793817884,-0.244346067090938,-8.5920941808145,0,0,0,0.00924123642313865,0.488692134181875,17.184188361629,0,0,0,
20,0.0597795591182365,0.0325962187045752,1.63269963734622,54.3632255247762,59.9565383750606,-2.17693284979496,-72.4843006997016,59.9945672968826,-0.27211660622437,-9.0605375874627,0,0,0,0.0108654062348584,0.544233212448739,18.1210751749254,0,0,0,
21,0.0629258517034068,0.0380068711357971,1.80815258992247,57.1652669399872,59.9493241718189,-2.41087011989662,-76.220355919983,59.9936655214774,-0.301358764987078,-9.52754448999787,0,0,0,0.0126689570452657,0.602717529974156,19.0550889799957,0,0,0,
22,0.0660721442885772,0.0439834040445808,1.99240744306312,59.9582450804985,59.9413554612739,-2.65654325741749,-79.944326773998,59.9926694326592,-0.332067907177187,-9.99304084674976,0,0,0,0.0146611346815269,0.664135814354374,19.9860816934995,0,0,0,
23,0.0692184368737475,0.0505534651948329,2.18543498405847,62.7417171332267,59.9325953797402,-2.91391331207796,-83.6556228443022,59.9915744224675,-0.364239164009745,-10.4569528555378,0,0,0,0.0168511550649443,0.728478328019489,20.9139057110756,0,0,0,
24,0.0723647294589178,0.057744608249445,2.38720460933187,65.5152417922322,59.9230071890007,-3.18293947910916,-87.3536557229763,59.9903758986251,-0.397867434888645,-10.919206965372,0,0,0,0.019248202749815,0.795734869777289,21.8384139307441,0,0,0,
25,0.0755110220440882,0.0655842884018026,2.59768432929177,68.2783793286865,59.9125542821309,-3.46357910572235,-91.0378391049153,59.9890692852664,-0.432947388215294,-11.3797298881144,0,0,0,0.0218614294672675,0.865894776430588,22.7594597762288,0,0,0,
26,0.0786573146292585,0.0740998580228869,2.81684077340352,71.0306916605885,59.9012001893028,-3.75578769787136,-94.7075888807846,59.9876500236629,-0.46947346223392,-11.8384486100981,0,0,0,0.0246999526742956,0.938946924467839,23.6768972201962,0,0,0,
27,0.0818036072144289,0.0833185623246968,3.04463919548012,73.7717424222208,59.8889085835671,-4.05951892730683,-98.3623232296277,59.9861135729459,-0.507439865913354,-12.2952904037035,0,0,0,0.0277728541082322,1.01487973182671,24.5905808074069,0,0,0,
28,0.0849498997995992,0.0932675350406524,3.28104347919106,76.5010970333331,59.8756432866125,-4.37472463892142,-102.001462711111,59.9844554108266,-0.546840579865177,-12.7501828388888,0,0,0,0.0310891783468841,1.09368115973035,25.5003656777777,0,0,0,
29,0.0880961923847695,0.103973794123672,3.52601614378835,79.2183227680426,59.8613682745018,-4.70135485838446,-105.62443035739,59.9826710343127,-0.587669357298057,-13.2030537946738,0,0,0,0.0346579313745572,1.17533871459611,26.4061075893475,0,0,0,
30,0.0912424849699399,0.11546423746261,3.77951835004893,81.922988823441,59.8460476833832,-5.03935780006524,-109.230651764588,59.9807559604229,-0.629919725008155,-13.6538314705735,0,0,0,0.0384880791542032,1.25983945001631,27.307662941147,0,0,0,
31,0.0943887775551102,0.127765638617722,4.04150990643248,84.6146663878961,59.8296458151764,-5.38867987524331,-112.819555183861,59.978705726897,-0.673584984405413,-14.1024443979827,0,0,0,0.0425885462059073,1.34716996881083,28.2048887959654,0,0,0,
32,0.0975350701402806,0.140904642575855,4.31194927545352,87.2929287090373,59.8121271432322,-5.74926570060469,-116.39057161205,59.976515892904,-0.718658212575586,-14.5488214515062,0,0,0,0.0469682141919517,1.43731642515117,29.0976429030124,0,0,0,
33,0.100681362725451,0.154907761526009,4.59079358026704,89.9573511614157,59.7934563179653,-6.12105810702272,-119.943134881888,59.9741820397457,-0.76513226337784,-14.992891860236,0,0,0,0.0516359205086698,1.53026452675568,29.9857837204719,0,0,0,
34,0.103827655310621,0.169801370655958,4.87799861146637,92.6075113138265,59.7735981724587,-6.50399814862183,-123.476681751769,59.9716997715573,-0.812999768577729,-15.4345852189711,0,0,0,0.0566004568853194,1.62599953715546,30.8691704379422,0,0,0,
35,0.106973947895792,0.185611703970596,5.17351883409241,95.2429889962826,59.7525177280392,-6.89802511212322,-126.990651995043,59.9690647160049,-0.862253139015402,-15.8738314993804,0,0,0,0.0618705679901985,1.7245062780308,31.7476629987609,0,0,0,
36,0.110120240480962,0.202364850132662,5.47730739485293,97.8633663666313,59.7301801998231,-7.30307652647058,-130.484488488842,59.9662725249779,-0.912884565808822,-16.3105610611052,0,0,0,0.0674549500442208,1.82576913161764,32.6211221222104,0,0,0,
37,0.113266533066132,0.220086748326509,5.78931612955097,100.468227976801,59.7065510022313,-7.71908817273462,-133.957637302401,59.9633188752789,-0.964886021591828,-16.7447046628001,0,0,0,0.0733622494421697,1.92977204318366,33.4894093256003,0,0,0,
38,0.116412825651303,0.238803184145572,6.10949557072098,103.057160838668,59.6815957544726,-8.14599409429464,-137.40954778489,59.9601994693091,-1.01824926178683,-17.1761934731113,0,0,0,0.0796010613818572,2.03649852357366,34.3523869462225,0,0,0,
39,0.119559118236473,0.258539785504189,6.43779495547174,105.629754489533,59.6552802859944,-8.58372660729566,-140.839672652711,59.9569100357493,-1.07296582591196,-17.6049590815889,0,0,0,0.0861799285013964,2.14593165182391,35.2099181631778,0,0,0,
40,0.122705410821643,0.27932201857442,6.77416223353449,108.185601057203,59.6275706419008,-9.03221631137932,-144.24746807627,59.9534463302376,-1.12902703892242,-18.0309335095338,0,0,0,0.0931073395248067,2.25805407784483,36.0618670190675,0,0,0,
41,0.125851703406814,0.30117518374851,7.11854407551528,110.724295324648,59.5984330883353,-9.49139210068704,-147.632393766197,59.9498041360419,-1.18642401258588,-18.4540492207746,0,0,0,0.10039172791617,2.37284802517176,36.9080984415493,0,0,0,
42,0.128997995991984,0.324124411627628,7.47088588135007,113.245434794256,59.5678341178298,-9.96118117513343,-150.993913059007,59.9459792647287,-1.24514764689168,-18.8742391323759,0,0,0,0.108041470542543,2.49029529378336,37.7484782647518,0,0,0,
43,0.132144288577154,0.348194659037547,7.83113178896132,115.74861975164,59.5357404546166,-10.4415090519484,-154.331493002186,59.9419675568271,-1.30518863149355,-19.2914366252733,0,0,0,0.116064886345849,2.61037726298711,38.5828732505466,0,0,0,
44,0.135290581162325,0.373410705071846,8.19922468311464,118.233453329015,59.5021190599042,-10.9322995774862,-157.644604438687,59.937764882488,-1.36653744718577,-19.7055755548359,0,0,0,0.124470235023949,2.73307489437155,39.4111511096717,0,0,0,
45,0.138436873747495,0.399797147163317,8.57510620447414,120.699541568118,59.4669371371156,-11.4334749392989,-160.932722090824,59.9333671421394,-1.42918436741236,-20.116590261353,0,0,0,0.133265715721106,2.85836873482471,40.2331805227061,0,0,0,
46,0.141583166332665,0.427378397184153,8.95871675885502,123.146493482668,59.4301621370878,-11.9449556784734,-164.195324643557,59.928770267136,-1.49311945980917,-20.5244155804446,0,0,0,0.142459465728051,2.98623891961834,41.0488311608892,0,0,0,
47,0.144729458917836,0.456178677575565,9.34999552667191,125.573921120353,59.3917617632326,-12.4666607022292,-167.431894827137,59.9239702204041,-1.55833258777865,-20.9289868533922,0,0,0,0.152059559191855,3.1166651755573,41.8579737067843,0,0,0,
48,0.147875751503006,0.486222017507443,9.74888047258156,127.981439624343,59.3517039766567,-12.9985072967754,-170.641919499124,59.9189629970821,-1.62481341209693,-21.3302399373905,0,0,0,0.162074005835814,3.24962682419385,42.660479874781,0,0,0,
49,0.151022044088176,0.517532249068633,10.1553083553182,130.368667294303,59.3099570012418,-13.5404111404243,-173.824889725737,59.9137446251552,-1.69255139255304,-21.7281112157171,0,0,0,0.172510749689544,3.38510278510607,43.4562224314342,0,0,0,
50,0.154168336673347,0.550133003488486,10.5692147377202,132.73522564691,59.266489328682,-14.0922863169603,-176.980300862546,59.9083111660853,-1.76153578962004,-22.1225376078183,0,0,0,0.183377667829495,3.52307157924008,44.2450752156366,0,0,0,
51,0.157314629258517,0.584047707390239,10.9905339969462,135.080739475862,59.2212697234797,-14.6540453292616,-180.107652634482,59.902658715435,-1.83175566615771,-22.5134565793103,0,0,0,0.19468256913008,3.66351133231541,45.0269131586206,0,0,0,
52,0.160460921843687,0.619299579076836,11.4191993348793,137.404836911363,59.1742672278976,-15.2255991131725,-183.206449215151,59.8967834034872,-1.90319988914656,-22.9008061518938,0,0,0,0.206433193025612,3.80639977829311,45.8016123037877,0,0,0,
53,0.163607214428858,0.655911624849774,11.8551427887177,139.707149479082,59.125451166867,-15.8068570516236,-186.276199305443,59.8906813958584,-1.97585713145295,-23.2845249131804,0,0,0,0.218637208283258,3.9517142629059,46.5690498263608,0,0,0,
54,0.166753507014028,0.693906635361585,12.2982952417495,141.987312158574,59.0747911528512,-16.3977269889994,-189.316416211432,59.8843488941064,-2.04971587362492,-23.664552026429,0,0,0,0.231302211787195,4.09943174724984,47.3291040528579,0,0,0,
55,0.169899799599198,0.733307182002464,12.7485864343114,144.244963441148,59.0222570906634,-16.9981152457486,-192.32661792153,59.8777821363329,-2.12476440571857,-24.0408272401913,0,0,0,0.244435727334155,4.24952881143714,48.0816544803826,0,0,0,
56,0.173046092184369,0.774135613321704,13.2059449749275,146.479745387188,58.9678191822377,-17.6079266332367,-195.306327182917,59.8709773977797,-2.20099082915459,-24.4132908978646,0,0,0,0.258045204440568,4.40198165830918,48.8265817957292,0,0,0,
57,0.176192384769539,0.816414051484433,13.6702983516284,148.691303682898,58.9114479313541,-18.2270644688379,-198.255071577198,59.8639309914193,-2.27838305860474,-24.7818839471497,0,0,0,0.272138017161478,4.55676611720948,49.5637678942994,0,0,0,
58,0.179338677354709,0.860164388764259,14.1415729434475,150.879287696481,58.8531141483143,-18.8554305912633,-201.172383595309,59.8566392685393,-2.35692882390792,-25.1465479494136,0,0,0,0.28672146292142,4.71385764781583,50.2930958988272,0,0,0,
59,0.18248496993988,0.905408284072344,14.6196940320931,153.043350533726,58.7927889545702,-19.4929253761241,-204.057800711635,59.8490986193213,-2.43661567201551,-25.5072250889544,0,0,0,0.301802761357448,4.87323134403102,51.0144501779088,0,0,0,
60,0.18563126252505,0.952167159523506,15.1045858137948,155.183149093008,58.730443787302,-20.1394477517264,-206.910865457345,59.8413054734127,-2.5174309689658,-25.8638581821681,0,0,0,0.317389053174502,5.03486193793161,51.7277163643361,0,0,0,
61,0.18877755511022,1.00046219703984,15.5961714113221,157.298344119686,58.6660504039469,-20.7948952150961,-209.731125492915,59.8332563004934,-2.59936190188701,-26.2163906866143,0,0,0,0.333487399013279,5.19872380377402,52.4327813732287,0,0,0,
62,0.191923847695391,1.0503143349924,16.0943728861721,159.388600259888,58.5995808866768,-21.4591638482294,-212.518133679851,59.8249476108346,-2.68239548102868,-26.5647667099813,0,0,0,0.350104778330802,5.36479096205736,53.1295334199627,0,0,0,
63,0.195070140280561,1.1017442648816,16.5991112509271,161.453586113682,58.5310076468245,-22.1321483345695,-215.271448151576,59.8163759558531,-2.76651854182119,-26.908931018947,0,0,0,0.367248088293868,5.53303708364238,53.817862037894,0,0,0,
64,0.198216432865731,1.15477242805659,17.1103064817774,163.492974287617,58.4603034292579,-22.8137419757032,-217.990632383489,59.8075379286572,-2.8517177469629,-27.2488290479361,0,0,0,0.384924142685528,5.70343549392579,54.4976580958722,0,0,0,
65,0.201362725450902,1.2094190124744,17.6278775312083,165.506441446628,58.3874413167008,-23.5038367082777,-220.675255262171,59.7984301645876,-2.93797958853471,-27.5844069077713,0,0,0,0.403139670824801,5.87595917706942,55.1688138155427,0,0,0,
66,0.204509018036072,1.2657039494993,18.1517423408503,167.493668365303,58.3123947340009,-24.2023231211337,-223.324891153737,59.7890493417501,-3.02529039014172,-27.9156113942171,0,0,0,0.421901316499765,6.05058078028344,55.8312227884343,0,0,0,
67,0.207655310621242,1.32364691074268,18.681817854489,169.45433997849,58.2351374523431,-24.9090904726519,-225.93911997132,59.7793921815429,-3.11363630908149,-28.2423899964151,0,0,0,0.441215636914228,6.22727261816298,56.4847799928301,0,0,0,
68,0.210801603206413,1.38326730494432,19.2180200312328,171.388145431254,58.1556435934076,-25.6240267083104,-228.517527241672,59.769455449176,-3.2030033385388,-28.564690905209,0,0,0,0.461089101648106,6.4060066770776,57.129381810418,0,0,0,
69,0.213947895791583,1.44458427489512,19.7602638588378,173.294778128156,58.0738876334732,-26.3470184784504,-231.059704170875,59.7592359541841,-3.2933773098063,-28.8824630213593,0,0,0,0.481528091631706,6.58675461961261,57.7649260427186,0,0,0,
70,0.217094188376754,1.50761669440219,20.3084633671857,175.173935781867,57.9898444074638,-27.0779511562476,-233.565247709156,59.748730550933,-3.38474389453095,-29.1956559636445,0,0,0,0.502538898134063,6.76948778906189,58.391311927289,0,0,0,
71,0.220240480961924,1.57238316529646,20.8625316419138,177.025320461092,57.9034891129381,-27.8167088558851,-236.033760614789,59.7379361391173,-3.47708860698564,-29.5042200768486,0,0,0,0.524127721765486,6.95417721397128,59.0084401536973,0,0,0,
72,0.223386773547094,1.63890201448344,21.4223808381955,178.848638637805,57.8147973140221,-28.5631744509273,-238.464851517073,59.7268496642528,-3.57039680636591,-29.8081064396342,0,0,0,0.54630067149448,7.14079361273182,59.6162128792683,0,0,0,
73,0.226533066132265,1.70719129103762,21.9879221946667,180.643601233789,57.7237449452832,-29.317229592889,-240.858134978385,59.7154681181604,-3.66465369911112,-30.1072668722981,0,0,0,0.569063763679208,7.32930739822225,60.2145337445962,0,0,0,
74,0.229679358717435,1.77726876334084,22.5590660474996,182.409923666464,57.6303083155455,-30.0787547299994,-243.213231555285,59.7037885394432,-3.75984434124993,-30.4016539444106,0,0,0,0.592422921113615,7.51968868249986,60.8033078888212,0,0,0,
75,0.232825651302605,1.84915191626522,23.1357218446174,184.14732589401,57.5344641116464,-30.8476291261565,-245.52976785868,59.6918080139558,-3.85595364076956,-30.691220982335,0,0,0,0.616383972088406,7.71190728153912,61.3824419646701,0,0,0,
76,0.235971943887776,1.92285794840098,23.7177981600516,185.855532459765,57.436189402132,-31.6237308800687,-247.80737661302,59.6795236752665,-3.95296636000859,-30.9759220766275,0,0,0,0.640952649466995,7.90593272001719,61.951844153255,0,0,0,
77,0.239118236472946,1.99840376932977,24.3052027084369,187.534272535896,57.3354616408936,-32.4069369445825,-250.045696714528,59.6669327051117,-4.05086711807281,-31.255712089316,0,0,0,0.666134589776589,8.10173423614562,62.511424178632,0,0,0,
78,0.242264529058116,2.07580599694363,24.8978423596425,189.183279966339,57.2322586707418,-33.1971231461901,-252.244373288451,59.6540323338427,-4.14964039327376,-31.5305466610564,0,0,0,0.691935332314544,8.29928078654751,63.0610933221128,0,0,0,
79,0.245410821643287,2.1550809548104,25.4956231535379,190.802293308995,57.1265587269195,-33.9941642047172,-254.403057745326,59.6408198408649,-4.24927052558965,-31.8003822181658,0,0,0,0.718360318270134,8.49854105117929,63.6007644363315,0,0,0,
80,0.248557114228457,2.23624466958565,26.0984503148889,192.391055877183,57.0183404405525,-34.7979337531852,-256.521407836244,59.6272925550691,-4.34974171914815,-32.0651759795305,0,0,0,0.745414889861883,8.6994834382963,64.130351959061,0,0,0,
81,0.251703406813627,2.31931286847172,26.7062282683848,193.949315780335,56.9075828420377,-35.6083043578464,-258.599087707113,59.6134478552547,-4.4510380447308,-32.3248859633891,0,0,0,0.773104289490575,8.9020760894616,64.6497719267783,0,0,0,
82,0.254849699398798,2.4043009767243,27.3188606537907,195.476825963931,56.7942653643676,-36.4251475383875,-260.635767951908,59.599283170546,-4.55314344229844,-32.5794709939885,0,0,0,0.801433658908101,9.10628688459689,65.1589419879769,0,0,0,
83,0.257995991983968,2.49122411520677,27.9362503412251,196.97334424867,56.678367846391,-37.2483337883001,-262.631125664893,59.5847959807989,-4.65604172353751,-32.8288907081116,0,0,0,0.830408038402258,9.31208344707502,65.6577814162233,0,0,0,
84,0.261142284569138,2.58009709799291,28.5582994465595,198.438633368865,56.5598705360095,-38.0777325954127,-264.58484449182,59.5699838170012,-4.75971657442659,-33.0731055614775,0,0,0,0.860032365997636,9.51943314885318,66.1462111229551,0,0,0,
85,0.264288577154309,2.67093443001816,29.1849093469376,199.872461010062,56.4387540933091,-38.9132124625834,-266.496614680083,59.5548442616636,-4.86415155782293,-33.3120768350104,0,0,0,0.890311476672721,9.72830311564586,66.6241536700207,0,0,0,
86,0.267434869739479,2.76375030477998,29.8159806964108,201.274599845871,56.3149995936267,-39.7546409285478,-268.366133127828,59.5393749492033,-4.96933011606847,-33.5457666409785,0,0,0,0.921250101593327,9.93866023213694,67.0915332819569,0,0,0,
87,0.270581162324649,2.8585586020875,30.4514134416899,202.644827574006,56.18858853055,-40.6018845889199,-270.193103432009,59.5235735663188,-5.07523557361499,-33.7741379290011,0,0,0,0.952852867362499,10.15047114723,67.5482758580021,0,0,0,
88,0.27372745490982,2.95537288586094,31.0911068380074,203.982926951535,56.0595028188521,-41.4548091173433,-271.97723593538,59.5074378523565,-5.18185113966791,-33.9971544919225,0,0,0,0.985124295286982,10.3637022793358,67.994308983845,0,0,0,
89,0.27687374749499,3.05420640198118,31.7349594650904,205.288685829317,55.9277247973584,-42.3132792867872,-273.718247772422,59.4909655996698,-5.2891599108484,-34.2147809715528,0,0,0,1.01806880066039,10.5783198216968,68.4295619431055,0,0,0,
90,0.28002004008016,3.1550720761896,32.3828692432402,206.56189718564,55.7932372317472,-43.1771589909869,-275.415862914186,59.4741546539684,-5.39714487387336,-34.4269828642733,0,0,0,1.0516906920632,10.7942897477467,68.8539657285465,0,0,0,
91,0.283166332665331,3.25798251203882,33.0347334495165,207.802359159044,55.6560233172816,-44.046311266022,-277.069812212058,59.4570029146602,-5.50578890825274,-34.6337265265072,0,0,0,1.08599417067961,11.0115778165055,69.2674530530145,0,0,0,
92,0.286312625250501,3.36294998889449,33.6904487340237,209.009875080323,55.516066681474,-44.9205983120317,-278.679833440431,59.4395083351843,-5.61507478900396,-34.8349791800538,0,0,0,1.1209833296315,11.2301495780079,69.6699583601077,0,0,0,
93,0.289458917835671,3.46998645998838,34.3499111362967,210.184253503709,55.3733513866822,-45.7998815150623,-280.245671338279,59.4216689233353,-5.72498518938279,-35.0307089172848,0,0,0,1.15666215332946,11.4499703787656,70.0614178345696,0,0,0,
94,0.292605210420842,3.57910355052333,35.0130161017828,211.325308237221,55.2278619326356,-46.6840214690438,-281.767077649628,59.4034827415794,-5.83550268363047,-35.2208847062035,0,0,0,1.19303451684111,11.6710053672609,70.441769412407,0,0,0,
95,0.295751503006012,3.6903125558301,35.6796584984189,212.432858372188,55.0795832588932,-47.5728779978919,-283.243811162917,59.3849479073616,-5.94660974973648,-35.4054763953647,0,0,0,1.2301041852767,11.893219499473,70.8109527907293,0,0,0,
96,0.298897795591182,3.80362443957652,36.3497326332992,213.506728311929,54.9285007472313,-48.4663101777323,-284.675637749239,59.3660625934039,-6.05828877221654,-35.5844547186548,0,0,0,1.26787481319217,12.1165775444331,71.1689094373097,0,0,0,
97,0.302044088176353,3.91904983202932,37.0231322694328,214.546747799595,54.7746002239609,-49.3641763592437,-286.062330399459,59.3468250279951,-6.17052204490546,-35.7577912999324,0,0,0,1.30634994400977,12.3410440898109,71.5155825998648,0,0,0,
98,0.305190380761523,4.0365990283687,37.6997506425864,215.552751945159,54.6178679621751,-50.2663341901151,-287.403669260213,59.3272334952719,-6.28329177376439,-35.9254586575266,0,0,0,1.34553300945623,12.5665835475288,71.8509173150532,0,0,0,
99,0.308336673346693,4.15628198705608,38.3794804782119,216.524581251565,54.4582906839252,-51.1726406376158,-288.699441668754,59.3072863354907,-6.39658007970198,-36.0874302085942,0,0,0,1.38542732901869,12.793160159404,72.1748604171884,0,0,0,
100,0.311482965931864,4.27810832825529,39.0622140084539,217.462081640008,54.2958555623263,-52.0829520112719,-289.949442186677,59.2869819452908,-6.51036900140898,-36.2436802733347,0,0,0,1.42603610941843,13.020738002818,72.4873605466693,0,0,0,
101,0.314629258517034,4.40208733230726,39.7478429892358,218.365104474366,54.1305502235903,-52.9971239856478,-291.153472632488,59.2663187779488,-6.62464049820597,-36.394184079061,0,0,0,1.46736244410242,13.2492809964119,72.788368158122,0,0,0,
102,0.317775551102204,4.52822793825873,40.4362587174216,219.233506584767,53.9623627489884,-53.9150116232288,-292.311342113022,59.2452953436235,-6.7393764529036,-36.5389177641278,0,0,0,1.50940931275291,13.4787529058072,73.0778355282556,0,0,0,
103,0.320921843687375,4.65653874244498,41.1273520480498,220.067150290284,53.79128167674,-54.8364693973997,-293.422867053712,59.2239102095925,-6.85455867467496,-36.677858381714,0,0,0,1.55217958081499,13.7091173493499,73.355716763428,0,0,0,
104,0.324068136272545,4.78702799712692,41.8210134116381,220.865903420768,53.6172960038308,-55.7613512155175,-294.487871227691,59.2021620004789,-6.97016890193969,-36.8109839034614,0,0,0,1.59567599904231,13.9403378038794,73.6219678069228,0,0,0,
105,0.327214428857715,4.91970360918276,42.5171328315554,221.6296393378,53.4403951877563,-56.6895104420739,-295.506185783733,59.1800493984695,-7.08618880525924,-36.9382732229667,0,0,0,1.63990120306092,14.1723776105185,73.8765464459333,0,0,0,
106,0.330360721442886,5.05457313885438,43.2155999414574,222.358236954769,53.2605691481942,-57.6207999219432,-296.477649273025,59.1575711435243,-7.2025999902429,-37.0597061591281,0,0,0,1.68485771295146,14.4051999804858,74.1194123182562,0,0,0,
107,0.333507014028056,5.19164379854871,43.9163040027851,223.05158075607,53.0778082686017,-58.5550720037134,-297.40210767476,59.1347260335752,-7.31938400046418,-37.175263459345,0,0,0,1.73054793284957,14.6387680009284,74.35052691869,0,0,0,
108,0.336653306613226,5.33092245169423,44.6191339223217,223.709560815421,52.892103397741,-59.4921785630956,-298.279414420561,59.1115129247176,-7.43652232038695,-37.2849268025701,0,0,0,1.77697415056474,14.8730446407739,74.5698536051403,0,0,0,
109,0.339799599198397,5.47241561165283,45.3239782698061,224.332072813287,52.7034458511296,-60.4319710264081,-299.109430417716,59.0879307313912,-7.55399637830102,-37.3886788022145,0,0,0,1.82413853721761,15.107992756602,74.7773576044289,0,0,0,
110,0.342945891783567,5.61612944068709,46.0307252955992,224.919018053422,52.5118274124172,-61.3743003941323,-299.89202407123,59.0639784265522,-7.67178754926654,-37.4865030089037,0,0,0,1.8720431468957,15.3435750985331,74.9730060178074,0,0,0,
111,0.346092184368738,5.76206974898336,46.7392629484018,225.470303478517,52.3172403346889,-62.3190172645357,-300.62707130469,59.0396550418361,-7.78987715806696,-37.5783839130862,0,0,0,1.92068991632779,15.5797543161339,75.1567678261724,0,0,0,
112,0.349238476953908,5.91024199373052,47.4494788930192,225.985841684952,52.1196773416926,-63.2659718573589,-301.314455579936,59.0149596677116,-7.90824648216987,-37.664306947492,0,0,0,1.97008066457684,15.8164929643397,75.3286138949841,0,0,0,
113,0.352384769539078,6.06065127825482,48.161260528172,226.465550936655,51.9191316289936,-64.2150140375627,-301.95406791554,58.9898914536242,-8.02687675469533,-37.7442584894425,0,0,0,2.02021709275161,16.0537535093907,75.4885169788851,0,0,0,
114,0.355531062124249,6.21330235121071,48.874495004348,226.90935517806,51.7155968650524,-65.1659933391307,-302.545806904081,58.9644496081315,-8.14574916739134,-37.8182258630101,0,0,0,2.0711007837369,16.2914983347827,75.6364517260201,0,0,0,
115,0.358677354709419,6.36819960582804,49.5890692416942,227.317184046166,51.5090671922293,-66.1187589889256,-303.089578728222,58.9386333990287,-8.2648448736157,-37.8861973410277,0,0,0,2.12273320194268,16.5296897472314,75.7723946820554,0,0,0,
116,0.361823647294589,6.52534707921547,50.304869947945,227.688972881692,51.2995372277127,-67.0731599305933,-303.585297175589,58.9124421534641,-8.38414499132417,-37.9481621469486,0,0,0,2.17511569307182,16.7682899826483,75.8963242938972,0,0,0,
117,0.36496993987976,6.68474845172043,51.0217836363841,228.024662739328,51.0870020643728,-68.0290448485121,-304.032883652437,58.8858752580466,-8.50363060606401,-38.0041104565546,0,0,0,2.22824948390681,17.007261212128,76.0082209131092,0,0,0,
118,0.36811623246493,6.84640704634565,51.7396966438372,228.324200397082,50.8714572715391,-68.986262191783,-304.432267196109,58.8589321589424,-8.62328277397287,-38.0540333995136,0,0,0,2.28213568211522,17.2465655479458,76.1080667990272,0,0,0,
119,0.3712625250501,7.01032582822225,52.4584951486931,228.587538364717,50.6528988957037,-69.9446601982575,-304.783384486289,58.831612361963,-8.74308252478219,-38.0979230607861,0,0,0,2.33677527607408,17.4861650495644,76.1958461215722,0,0,0,
120,0.374408817635271,7.17650740413968,53.1780651889491,228.81463489128,50.4313234611471,-70.9040869185988,-305.08617985504,58.8039154326434,-8.86301086482485,-38.13577248188,0,0,0,2.39216913471323,17.7260217296497,76.2715449637601,0,0,0,
121,0.377555110220441,7.34495402213243,53.8982926802793,229.005453971724,50.2067279704901,-71.8643902403724,-305.340605295632,58.7758409963113,-8.98304878004655,-38.167575661954,0,0,0,2.44831800737748,17.9660975600931,76.335151323908,0,0,0,
122,0.380701402805611,7.51566757112357,54.6190634341222,229.159965352612,49.9791099051686,-72.8254179121629,-305.546620470149,58.7473887381461,-9.10317723902036,-38.1933275587687,0,0,0,2.50522252370786,18.2063544780407,76.3866551175374,0,0,0,
123,0.383847695390782,7.68864958062532,55.3402631757846,229.278144536918,49.7484672258329,-73.7870175677128,-305.70419271589,58.7185584032291,-9.2233771959641,-38.2130240894863,0,0,0,2.56288319354177,18.4467543919282,76.4260481789725,0,0,0,
124,0.386993987975952,7.86390122049654,56.0617775625596,229.359972787906,49.5147983726713,-74.7490367500795,-305.813297050541,58.6893497965839,-9.34362959375993,-38.2266621313176,0,0,0,2.62130040683218,18.6872591875199,76.4533242626353,0,0,0,
125,0.390140280561122,8.04142330075721,56.7834922018546,229.405437132107,49.2781022656571,-75.7113229358061,-305.873916176142,58.6597627832071,-9.46391536697576,-38.2342395220178,0,0,0,2.68047443358574,18.9278307339515,76.4684790440355,0,0,0,
126,0.393286573146293,8.22121627146008,57.505292669328,229.414530361369,49.0383783047199,-76.6737235591039,-305.886040481826,58.62979728809,-9.58421544488799,-38.2357550602282,0,0,0,2.74040542382003,19.168430889776,76.4715101204564,0,0,0,
127,0.396432865731463,8.40328022261926,58.2270645270305,229.387251034007,48.795626369841,-77.6360860360407,-305.849668045342,58.5994532962301,-9.70451075450509,-38.2312085056678,0,0,0,2.80109340753975,19.4090215090102,76.4624170113355,0,0,0,
128,0.399579158316633,8.58761488419598,58.948693341549,229.323603475023,48.549846821072,-78.598257788732,-305.764804633364,58.568730852634,-9.8247822235915,-38.2206005791706,0,0,0,2.86253829473199,19.649564447183,76.4412011583411,0,0,0,
129,0.402725450901804,8.77421962614137,59.6700647021489,229.22359777543,48.3010404984782,-79.5600862695319,-305.631463700573,58.5376300623098,-9.94501078369149,-38.2039329625716,0,0,0,2.92473987538046,19.890021567383,76.4078659251432,0,0,0,
130,0.405871743486974,8.9630934584964,60.3910642389139,229.087249790643,48.0492087220048,-80.5214189852185,-305.449666387523,58.5061510902506,-10.0651773731523,-38.1812082984404,0,0,0,2.9876978194988,20.1303547463046,76.3624165968808,0,0,0,
131,0.409018036072144,9.15423503154879,61.1115776408783,228.914581137971,47.7943532912683,-81.4821035211711,-305.219441517295,58.4742941614085,-10.1852629401464,-38.1524301896618,0,0,0,3.05141167718293,20.3705258802928,76.3048603793236,0,0,0,
132,0.412164328657315,9.347642636047,61.831490674151,228.705619193189,47.5364764852707,-82.4419875655346,-304.940825590918,58.4420595606588,-10.3052484456918,-38.1176031988648,0,0,0,3.11588087868233,20.6104968913837,76.2352063977296,0,0,0,
133,0.415310621242485,9.54331420347127,62.5506892000262,228.460397086195,47.2755810620383,-83.4009189333682,-304.613862781593,58.4094476327548,-10.425114866671,-38.0767328476992,0,0,0,3.18110473449042,20.8502297333421,76.1534656953983,0,0,0,
134,0.418456913827655,9.74124730636152,63.2690591930798,228.17895369576,47.0116702581846,-84.3587455907731,-304.23860492768,58.3764587822731,-10.5448431988466,-38.0298256159601,0,0,0,3.24708243545384,21.0896863976933,76.0596512319201,0,0,0,
135,0.421603206412826,9.94143915870226,63.9864867592477,227.861333643364,46.744747788397,-85.3153156789969,-303.815111524485,58.3430934735496,-10.6644144598746,-37.9768889405607,0,0,0,3.31381305290075,21.3288289197492,75.9537778811213,0,0,0,
136,0.424749498997996,10.1438866163642,64.7028581538828,227.507587286119,46.4748178448477,-86.2704775385104,-303.343449714825,58.309352230606,-10.7838096923138,-37.9179312143531,0,0,0,3.38129553878808,21.5676193846276,75.8358624287062,0,0,0,
137,0.427895791583166,10.348586177603,65.418059799789,227.117770708786,46.2018850965294,-87.2240797330521,-302.823694278382,58.2752356370662,-10.9030099666315,-37.8529617847977,0,0,0,3.44952872586765,21.806019933263,75.7059235695954,0,0,0,
138,0.431042084168337,10.5555339836139,66.1319783052282,226.691945714887,45.9259546885147,-88.1759710736375,-302.25592761985,58.2407443360643,-11.0219963842047,-37.7819909524812,0,0,0,3.51851132787132,22.0439927684094,75.5639819049624,0,0,0,
139,0.434188376753507,10.7647258191444,66.8445004818977,226.230179816901,45.6470322411408,-89.1260006425302,-301.640239755868,58.2058790301426,-11.1407500803163,-37.7050299694834,0,0,0,3.58824193971479,22.2815001606326,75.4100599389669,0,0,0,
140,0.437334669338677,10.9761571131615,67.5555133628762,225.732546225561,45.365123849118,-90.0740178171682,-300.976728300748,58.1706404811397,-11.259252227146,-37.6220910375935,0,0,0,3.65871903772051,22.518504454292,75.244182075187,0,0,0,
141,0.440480961923848,11.1898229395774,68.2649042205337,225.199123838251,45.0802360805635,-91.0198722940449,-300.265498451001,58.1350295100704,-11.3774840367556,-37.5331873063752,0,0,0,3.72994097985913,22.7549680735112,75.0663746127504,0,0,0,
142,0.443627254509018,11.4057180180298,68.9725605844043,224.629997226493,44.7923759759603,-91.9634141125391,-299.506662968657,58.099046996995,-11.4954267640674,-37.4383328710821,0,0,0,3.80190600600993,22.9908535281348,74.8766657421642,0,0,0,
143,0.446773547094188,11.6238367147194,69.6783702590175,224.025256622538,44.5015510470408,-92.9044936786901,-298.700342163385,58.0626938808801,-11.6130617098363,-37.3375427704231,0,0,0,3.87461223823981,23.2261234196725,74.6750855408461,0,0,0,
144,0.449919839679359,11.8441730433032,70.3822213416865,223.384997905066,44.2077692755957,-93.8429617889153,-297.846663873422,58.0259711594495,-11.7303702236144,-37.2308329841777,0,0,0,3.94805768110108,23.4607404472288,74.4616659683555,0,0,0,
145,0.453066132264529,12.0667206658433,71.0840022402495,222.709322583979,43.9110391122089,-94.778669653666,-296.945763445305,57.9888798890261,-11.8473337067082,-37.1182204306631,0,0,0,4.02224022194777,23.6946674134165,74.2364408613262,0,0,0,
146,0.456212424849699,12.291472893812,71.7836016907625,221.998337784307,43.6113694749174,-95.7114689210166,-295.997783712409,57.9514211843647,-11.9639336151271,-36.9997229640511,0,0,0,4.09715763127066,23.9278672302542,73.9994459281023,0,0,0,
147,0.45935871743487,12.518422689152,72.4809087751393,221.252156229229,43.3087697477973,-96.6412117001858,-295.002874972305,57.9135962184747,-12.0801514625232,-36.8753593715381,0,0,0,4.17280756305067,24.1603029250464,73.7507187430762,0,0,0,
148,0.46250501002004,12.7475626653926,73.1758129387375,220.470896222196,43.0032497794765,-97.5677505849834,-293.961194962928,57.8754062224346,-12.1959688231229,-36.745149370366,0,0,0,4.24918755513088,24.3919376462458,73.490298740732,0,0,0,
149,0.46565130260521,12.9788850888205,73.8682040078858,219.654681628179,42.6948198815726,-98.4909386771811,-292.872908837572,57.8368524851966,-12.3113673346476,-36.6091136046965,0,0,0,4.32629502960685,24.6227346692953,73.218227209393,0,0,0,
150,0.468797595190381,13.212381879706,74.5579722073519,218.803641854026,42.3834908270586,-99.4106296098025,-291.738189138702,57.7979363533823,-12.4263287012253,-36.4672736423377,0,0,0,4.40412729323534,24.8526574024506,72.9345472846754,0,0,0,
151,0.471943887775551,13.448044613584,75.2450081777466,217.91791182795,42.0692738485546,-100.326677570329,-290.5572157706,57.7586592310693,-12.5408346962911,-36.319651971325,0,0,0,4.48268153786134,25.0816693925822,72.63930394265,0,0,0,
152,0.475090180360721,13.6858645225898,75.9292029928625,216.997631978133,41.7521806365469,-101.238937323817,-289.330175970844,57.7190225795684,-12.6548671654771,-36.1662719963555,0,0,0,4.56195484086327,25.3097343309542,72.332543992711,0,0,0,
153,0.478236472945892,13.9258324968489,76.6104481769434,216.042948210463,41.4322233375348,-102.147264235924,-288.057264280618,57.6790279171918,-12.7684080294906,-36.0071580350772,0,0,0,4.64194416561631,25.5368160589811,72.0143160701545,0,0,0,
154,0.481382765531062,14.1679390859218,77.2886357218827,215.054011885404,41.1094145521043,-103.051514295844,-286.738682513872,57.638676819013,-12.8814392869804,-35.842335314234,0,0,0,4.72264636197393,25.7628785739609,71.684670628468,0,0,0,
155,0.484529058116232,14.4121745003017,77.9636581043478,214.030979793993,40.7837673329311,-103.95154413913,-285.374639725324,57.5979709166164,-12.9939430173913,-35.6718299656655,0,0,0,4.80405816676723,25.9878860347826,71.3436599313311,0,0,0,
156,0.487675350701403,14.6585286129672,78.635408302827,212.974014132988,40.4552951827104,-104.847211070436,-283.965352177317,57.5569118978388,-13.1059013838045,-35.4956690221646,0,0,0,4.88617620432239,26.211802767609,70.9913380443292,0,0,0,
157,0.490821643286573,14.9069909609874,79.3037798145975,211.883282479145,40.1240120520168,-105.73837308613,-282.511043305527,57.5155015065021,-13.2172966357662,-35.3138804131909,0,0,0,4.96899698699579,26.4345932715325,70.6277608263818,0,0,0,
158,0.493967935871743,15.1575507471811,79.9686666726109,210.758957762659,39.7899323370919,-106.624888896814,-281.011943683545,57.4737415421365,-13.3281111121018,-35.1264929604432,0,0,0,5.05251691572702,26.6562222242036,70.2529859208863,0,0,0,
159,0.497114228456914,15.4101968418283,80.6299634622935,209.601218239737,39.4530708775622,-107.506617949725,-279.468290986316,57.4316338596953,-13.4383272437156,-34.9335363732895,0,0,0,5.13673228060945,26.8766544874312,69.867072746579,0,0,0,
160,0.500260521042084,15.6649177844353,81.2875653382596,208.410247464343,39.1134429540863,-108.383420451013,-277.880329952458,57.3891803692608,-13.5479275563766,-34.7350412440572,0,0,0,5.22163926147844,27.0958551127532,69.4700824881145,0,0,0,
161,0.503406813627254,15.921701785551,81.9413680409341,207.186234259095,38.771064285932,-109.255157387912,-276.24831234546,57.3463830357415,-13.656894673489,-34.5310390431825,0,0,0,5.307233928517,27.313789346978,69.0620780863649,0,0,0,
162,0.506553106212425,16.1805367286366,82.5912679130823,205.929372685324,38.4259510284846,-110.121690550776,-274.572496913766,57.3032438785606,-13.765211318847,-34.3215621142207,0,0,0,5.39351224287886,27.5304226376941,68.6431242284414,0,0,0,
163,0.509699398797595,16.4414101719863,83.2371619162441,204.639862012314,38.0781197706849,-110.982882554992,-272.853149349752,57.2597649713356,-13.872860319374,-34.106643668719,0,0,0,5.48047005732878,27.745720638748,68.213287337438,0,0,0,
164,0.512845691382766,16.7043093507003,83.8789476470707,203.317906685702,37.7275875323996,-111.838596862761,-271.090542247602,57.21594844155,-13.9798246078451,-33.8863177809503,0,0,0,5.56810311690009,27.9596492156902,67.7726355619006,0,0,0,
165,0.515991983967936,16.969221178708,84.5165233535596,201.963716295067,37.3743717617227,-112.688697804746,-269.28495506009,57.1717964702153,-14.0860872255933,-33.6606193825112,0,0,0,5.65640705956932,28.1721744511865,67.3212387650224,0,0,0,
166,0.519138276553106,17.2361322508431,85.1497879511875,200.577505540702,37.0184903322092,-113.533050601583,-267.43667405427,57.1273112915261,-14.1916313251979,-33.4295842567837,0,0,0,5.74537741694771,28.3832626503958,66.8591685135675,0,0,0,
167,0.522284569138277,17.5050288449692,85.778641038936,199.159494199572,36.6599615400411,-114.371521385248,-265.545992266096,57.0824951925051,-14.296440173156,-33.193249033262,0,0,0,5.83500961498973,28.592880346312,66.386498066524,0,0,0,
168,0.525430861723447,17.7758969241546,86.4029829152104,197.709907090469,36.2988041011271,-115.20397722028,-263.613209453958,57.0373505126409,-14.4004971525351,-32.9516511817448,0,0,0,5.92529897471821,28.8009943050701,65.9033023634896,0,0,0,
169,0.528577154308617,18.0487221388987,87.0227145936465,196.22897403837,35.9350371481351,-116.030286124862,-261.638632051161,56.9918796435169,-14.5037857656077,-32.7048290063951,0,0,0,6.01624071296622,29.0075715312155,65.4096580127901,0,0,0,
170,0.531723446893788,18.3234898294061,87.6377378188045,194.716929838,35.5686802274585,-116.850317091739,-259.622573117334,56.9460850284323,-14.6062896364674,-32.4528216396667,0,0,0,6.10782994313537,29.2125792729348,64.9056432793334,0,0,0,
171,0.534869739478958,18.6001850279117,88.2479550817472,193.174014216604,35.1997532961177,-117.663940108996,-257.565352288805,56.8999691620147,-14.7079925136245,-32.1956690361006,0,0,0,6.20006167597058,29.4159850272491,64.3913380722012,0,0,0,
172,0.538016032064128,18.8787924610534,88.8532696354989,191.600471795938,34.8282767185955,-118.471026180665,-255.467295727918,56.8535345898244,-14.8088782725831,-31.9334119659897,0,0,0,6.29293082035112,29.6177565451663,63.8668239319795,0,0,0,
173,0.541162324649299,19.1592965522932,89.4535855103848,189.996552053493,34.454271263609,-119.27144734718,-253.328736071324,56.8067839079511,-14.9089309183975,-31.6660920089155,0,0,0,6.38643218409775,29.8178618367949,63.3321840178311,0,0,0,
174,0.544308617234469,19.4416814243878,90.0488075292463,188.362509282932,34.0777581008163,-120.065076705662,-251.150012377243,56.759719762602,-15.0081345882077,-31.3937515471554,0,0,0,6.48056047479592,30.0162691764154,62.7875030943108,0,0,0,
175,0.547454909819639,19.7259309019047,90.6388413225307,186.69860255378,33.6987587974605,-120.851788430041,-248.931470071707,56.7123448496826,-15.1064735537551,-31.1164337589634,0,0,0,6.57531030063489,30.2129471075102,62.2328675179268,0,0,0,
176,0.55060120240481,20.0120285137876,91.2235933432535,185.005095670346,33.3172953149499,-121.631457791005,-246.673460893795,56.6646619143687,-15.2039322238756,-30.8341826117244,0,0,0,6.67067617126252,30.4078644477512,61.6683652234487,0,0,0,
177,0.55374749498998,20.2999574959674,91.8029708818292,183.282257129899,32.9333900053768,-122.403961175772,-244.376342839866,56.6166737506721,-15.3004951469715,-30.5470428549832,0,0,0,6.76665249865579,30.6009902939431,61.0940857099665,0,0,0,
178,0.55689378757515,20.5897007940202,92.3768820807704,181.530360080101,32.5470656079731,-123.169176107694,-242.040480106802,56.5683832009966,-15.3961470134617,-30.2550600133502,0,0,0,6.86323359800673,30.7922940269235,60.5101200267005,0,0,0,
179,0.560040080160321,20.8812410658711,92.9452359492514,179.749682275698,32.1583452455052,-123.926981265668,-239.666243034264,56.5197931556881,-15.4908726582086,-29.958280379283,0,0,0,6.96041368862371,30.9817453164171,59.916560758566,0,0,0,
180,0.563186372745491,21.1745606845439,93.5079423775338,177.940506034484,31.7672524206081,-124.677256503378,-237.254008045979,56.470906552576,-15.5846570629223,-29.6567510057473,0,0,0,7.05818689484796,31.1693141258446,59.3135020114946,0,0,0,
181,0.566332665330661,21.4696417409554,94.0649121512538,176.103118192542,31.3738110120595,-125.419882868338,-234.804157590056,56.4217263765074,-15.6774853585423,-29.350519698757,0,0,0,7.15654724698512,31.3549707170846,58.7010393975141,0,0,0,
182,0.569478957915832,21.7664660467551,94.6160569655658,174.237810058768,30.9780452709932,-126.154742620754,-232.317080078357,56.3722556588741,-15.7693428275943,-29.0396350097946,0,0,0,7.25548868225171,31.5386856551886,58.0792700195893,0,0,0,
183,0.572625250501002,22.065015137209,95.1612894391435,172.344877368682,30.5799798170547,-126.881719252191,-229.793169824909,56.3224974771318,-15.8602149065239,-28.7241462281137,0,0,0,7.35500504573632,31.7204298130478,57.4482924562274,0,0,0,
184,0.575771543086172,22.3652702741265,95.7005231280333,170.424620237545,30.179639634498,-127.600697504044,-227.232826983393,56.2724549543122,-15.9500871880056,-28.4041033729242,0,0,0,7.45509009137551,31.9001743760111,56.8082067458483,0,0,0,
185,0.578917835671343,22.6672124488321,96.2336725393596,168.477343112774,29.7770500682239,-128.311563385813,-224.636457483698,56.222131258528,-16.0389454232266,-28.0795571854623,0,0,0,7.55573748294403,32.0778908464532,56.1591143709246,0,0,0,
186,0.582064128256513,22.9708223851783,96.7606531448795,166.503354725674,29.3722368197623,-129.014204193173,-222.004472967566,56.1715296024703,-16.1267755241466,-27.7505591209457,0,0,0,7.65694079505942,32.2535510482932,55.5011182418914,0,0,0,
187,0.585210420841683,23.2760805426023,97.2813813943843,164.502968042492,28.965225943197,-129.708508525846,-219.337290723323,56.1206532428996,-16.2135635657307,-27.4171613404154,0,0,0,7.75869351420075,32.4271271314614,54.8343226808308,0,0,0,
188,0.588356713426854,23.5829671192237,97.7957747289457,162.476500214796,28.556043841035,-130.394366305261,-216.635333619728,56.0695054801294,-16.2992957881576,-27.0794167024659,0,0,0,7.86098903974125,32.5985915763152,54.1588334049319,0,0,0,
189,0.591503006012024,23.8914620549846,98.3037515940054,160.42427252919,28.1447172600206,-131.071668792007,-213.89903003892,56.0180896575026,-16.3839585990009,-26.737378754865,0,0,0,7.96382068499485,32.7679171980018,53.47475750973,0,0,0,
190,0.594649298597194,24.201545034829,98.8052314523051,158.346610356382,27.7312732868947,-131.740308603073,-211.128813808509,55.9664091608618,-16.4675385753842,-26.3911017260636,0,0,0,8.06718167827632,32.9350771507684,52.7822034521272,0,0,0,
191,0.597795591182365,24.5131954919246,99.3001347966553,156.24384309959,27.3157393441005,-132.400179728874,-208.325124132787,55.9144674180126,-16.5500224661092,-26.0406405165984,0,0,0,8.17106516397487,33.1000449322184,52.0812810331967,0,0,0,
192,0.600941883767535,24.8263926109232,99.7883831625408,154.116304142325,26.8981431854357,-133.051177550054,-205.4884055231,55.8622678981795,-16.6313971937568,-25.6860506903875,0,0,0,8.27546420364107,33.2627943875136,51.3721013807749,0,0,0,
193,0.604088176352705,25.1411153312608,100.269899140561,151.964330795527,26.4785128916522,-133.693198854081,-202.619107727369,55.8098141114565,-16.7116498567601,-25.3273884659212,0,0,0,8.38037177708694,33.4232997135202,50.6547769318423,0,0,0,
194,0.607234468937876,25.4573423504968,100.744606388702,149.788264244091,26.0568768660043,-134.326141851602,-199.717685658788,55.7571096082505,-16.7907677314503,-24.9647107073485,0,0,0,8.48578078349894,33.5815354629005,49.929421414697,0,0,0,
195,0.610380761523046,25.7750521276913,101.212429644441,147.588449492773,25.633263829745,-134.949906192588,-196.784599323697,55.7041579787181,-16.8687382740735,-24.5980749154621,0,0,0,8.59168404256376,33.7374765481469,49.1961498309242,0,0,0,
196,0.613527054108216,26.0942228868203,101.673294736679,145.365235311488,25.207702817573,-135.564392982239,-193.820313748651,55.6509628521966,-16.9455491227799,-24.2275392185814,0,0,0,8.69807429560675,33.8910982455598,48.4550784371627,0,0,0,
197,0.616673346693387,26.4148326202283,102.127128597501,143.11897418002,24.780223173029,-136.169504796668,-190.825298906693,55.5975278966286,-17.0211880995835,-23.8531623633366,0,0,0,8.80494420674275,34.042376199167,47.7063247266732,0,0,0,
198,0.619819639278557,26.7368590921174,102.573859273757,140.850022232131,24.3508545438435,-136.765145698343,-187.800029642841,55.5438568179804,-17.0956432122929,-23.4750037053551,0,0,0,8.91228636403912,34.1912864245858,46.9500074107103,0,0,0,
199,0.622965931863728,27.0602798420727,103.013415938475,138.558739199105,23.9196268772364,-137.3512212513,-184.744985598806,55.4899533596546,-17.1689026564125,-23.0931231998508,0,0,0,9.0200932806909,34.3378053128249,46.1862463997015,0,0,0,
200,0.626112224448898,27.3850721886234,103.445728902085,136.245488352708,23.4865704151688,-137.927638536113,-181.660651136944,55.4358213018961,-17.2409548170141,-22.707581392118,0,0,0,9.12835739620781,34.4819096340283,45.415162784236,0,0,0,
201,0.629258517034068,27.7112132328387,103.870729623472,133.910636447598,23.0517156895484,-138.49430616463,-178.547515263464,55.3814644611936,-17.3117882705787,-22.318439407933,0,0,0,9.23707107761289,34.6235765411574,44.636878815866,0,0,0,
202,0.632404809619239,28.0386798619582,104.288350720842,131.554553663174,22.615093517389,-139.051134294456,-175.406071550899,55.3268866896736,-17.381391786807,-21.9257589438623,0,0,0,9.34622662065274,34.762783573614,43.8515178877247,0,0,0,
203,0.635551102204409,28.3674487530567,104.698525982403,129.177613544889,22.1767349959244,-139.598034643204,-172.236818059852,55.2720918744906,-17.4497543304005,-21.5296022574815,0,0,0,9.45581625101889,34.8995086608011,43.0592045149629,0,0,0,
204,0.638697394789579,28.6974963767415,105.101190376865,126.780192945023,21.736671497678,-140.134920502487,-169.040257260031,55.2170839372098,-17.5168650628109,-21.1300321575038,0,0,0,9.5658321255805,35.0337301256218,42.2600643150076,0,0,0,
205,0.64184368737475,29.0287990008832,105.49628006375,124.362671962938,21.2949346654891,-140.661706751666,-165.816895950584,55.1618668331861,-17.5827133439582,-20.727111993823,0,0,0,9.67626633362774,35.1654266879165,41.454223987646,0,0,0,
206,0.64498997995992,29.3613326943782,105.88373240351,121.925433884813,20.8515564074957,-141.178309871346,-162.567245179751,55.106444550937,-17.6472887339183,-20.3209056474689,0,0,0,9.78711089812607,35.2945774678366,40.6418112949378,0,0,0,
207,0.64813627254509,29.6950733309428,106.263485967464,119.468865122878,20.4065688920763,-141.684647956619,-159.291820163837,55.0508211115095,-17.7105809945774,-19.9114775204797,0,0,0,9.89835777698093,35.4211619891547,39.8229550409593,0,0,0,
208,0.651282565130261,30.0299965929383,106.635480547535,116.993355154146,19.960004542749,-142.180640730046,-155.991140205528,54.9950005678436,-17.7725800912558,-19.498892525691,0,0,0,10.0099988643128,35.5451601825116,38.9977850513821,0,0,0,
209,0.654428857715431,30.3660779752266,106.999657165792,114.499296458669,19.5118960330312,-142.66620955439,-152.665728611559,54.9389870041289,-17.8332761942987,-19.0832160764448,0,0,0,10.1220259917422,35.6665523885974,38.1664321528896,0,0,0,
210,0.657575150300601,30.7032927890552,107.355958083807,111.987084457307,19.0622762812597,-143.141277445076,-149.316112609743,54.8827845351575,-17.8926596806345,-18.6645140762179,0,0,0,10.2344309296851,35.7853193612691,37.3290281524357,0,0,0,
211,0.660721442885772,31.0416161659716,107.704326811804,109.45711744904,18.6111784453712,-143.605769082406,-145.942823265387,54.8263973056714,-17.9507211353007,-18.2428529081734,0,0,0,10.3472053886572,35.9014422706014,36.4857058163468,0,0,0,
212,0.663867735470942,31.381023061766,108.044708117618,106.909796547817,18.1586359176453,-144.05961082349,-142.54639539709,54.7698294897057,-18.0074513529363,-17.8182994246362,0,0,0,10.4603410205887,36.0149027058725,35.6365988492724,0,0,0,
213,0.667014028056112,31.721488260442,108.377048035449,104.345525618963,17.7046823194107,-144.502730713932,-139.12736749195,54.7130852899263,-18.0628413392415,-17.3909209364938,0,0,0,10.5738294201473,36.125682678483,34.7818418729875,0,0,0,
214,0.670160320641283,32.0629863782142,108.701293874423,101.764711215145,17.2493514957144,-144.935058499231,-135.686281620193,54.6561689369643,-18.1168823124038,-16.9607852025242,0,0,0,10.6876621260714,36.2337646248076,33.9215704050483,0,0,0,
215,0.673306613226453,32.4054918675333,109.017394226941,99.1677625119205,16.7926775099556,-145.356525635921,-132.223683349227,54.5990846887444,-18.1695657044901,-16.5279604186534,0,0,0,10.8018306225111,36.3391314089802,33.0559208373068,0,0,0,
216,0.676452905811623,32.7489790211359,109.32529897683,96.5550912428599,16.3346946384855,-145.76706530244,-128.740121657147,54.5418368298107,-18.220883162805,-16.0925152071433,0,0,0,10.9163263403786,36.44176632561,32.1850304142866,0,0,0,
217,0.679599198396794,33.0934219761204,109.624959307293,93.9271116342702,15.8754373651728,-146.166612409724,-125.236148845694,54.4844296706466,-18.2708265512155,-15.6545186057117,0,0,0,11.0311406587068,36.541653102431,31.3090372114234,0,0,0,
218,0.682745490981964,33.4387947180478,109.916327708643,91.284240339521,15.4149403759363,-146.555103611524,-121.712320452695,54.426867546992,-18.3193879514405,-15.2140400565868,0,0,0,11.1462649060159,36.638775902881,30.4280801131737,0,0,0,
219,0.685891783567134,33.7850710850658,110.199357985839,88.6268963729863,14.9532385532456,-146.932477314452,-118.169195163982,54.3691548191557,-18.3665596643065,-14.7711493954977,0,0,0,11.2616903616886,36.733119328613,29.5422987909954,0,0,0,
220,0.689038076152305,34.1322247720567,110.474005265809,85.9555010436119,14.490366970591,-147.298673687745,-114.607334724816,54.3112958713239,-18.4123342109681,-14.325916840602,0,0,0,11.3774082573522,36.8246684219363,28.651833681204,0,0,0,
221,0.692184368737475,34.4802293348082,110.740226004564,83.2704778881181,14.0263608869225,-147.653634672752,-111.027303850824,54.2532951108653,-18.4567043340939,-13.878412981353,0,0,0,11.4934097782694,36.9134086681879,27.756825962706,0,0,0,
222,0.695330661322645,34.8290581942054,110.997977994102,80.5722526038516,13.5612557410595,-147.997303992136,-107.429670138469,54.1951569676324,-18.499662999017,-13.4287087673086,0,0,0,11.6096860647351,36.9993259980339,26.8574175346172,0,0,0,
223,0.698476953907816,35.1786846404454,111.2472203691,77.8612529812916,13.0950871460728,-148.3296271588,-103.815003975056,54.1368858932591,-18.54120339485,-12.9768754968819,0,0,0,11.7262282134818,37.0824067897001,25.9537509937639,0,0,0,
224,0.701623246492986,35.529081837272,111.487913613394,75.1379088362268,12.6278908836373,-148.650551484526,-100.183878448302,54.0784863604547,-18.5813189355657,-12.5229848060378,0,0,0,11.8430272790907,37.1626378711314,25.0459696120756,0,0,0,
225,0.704769539078156,35.8802228262299,111.720019566242,72.4026519416098,12.1597028983601,-148.960026088323,-96.5368692554797,54.019962862295,-18.6200032610404,-12.067108656935,0,0,0,11.96007427541,37.2400065220807,24.1342173138699,0,0,0,
226,0.707915831663327,36.2320805309394,111.943501428375,69.6559159591013,11.6905592920809,-149.258001904501,-92.8745546121351,53.9613199115101,-18.6572502380626,-11.6093193265169,0,0,0,12.0773601769798,37.3145004761251,23.2186386530338,0,0,0,
227,0.711062124248497,36.5846277613888,112.158323767833,66.8981363703161,11.2204963181483,-149.544431690444,-89.1975151604214,53.9025620397685,-18.6930539613055,-11.1496893950527,0,0,0,12.1948759204629,37.386107922611,22.2993787901054,0,0,0,
228,0.714208416833667,36.9378372182457,112.364452525579,64.1297504077784,10.7495503756724,-149.819270034105,-85.5063338770378,53.8436937969591,-18.7274087542631,-10.6882917346297,0,0,0,12.3126124060819,37.4548175085263,21.3765834692595,0,0,0,
229,0.717354709418838,37.2916814971847,112.561855020903,61.3511969856016,10.2777580037537,-150.082473361203,-81.8015959808021,53.7847197504692,-18.7603091701504,-10.2251994976003,0,0,0,12.4305604990616,37.5206183403009,20.4503989952005,0,0,0,
230,0.720501002004008,37.6461330932327,112.7504999566,58.5629166299003,9.80515587568969,-150.333999942133,-78.083888839867,53.7256444844612,-18.7917499927666,-9.76048610498338,0,0,0,12.5487110310776,37.5834999855332,19.5209722099668,0,0,0,
231,0.723647294589178,38.0011644051293,112.930357423934,55.7653514089468,9.331780793161,-150.573809898579,-74.3538018785957,53.6664725991451,-18.8217262373223,-9.29422523482447,0,0,0,12.6670548017098,37.6434524746447,18.5884504696489,0,0,0,
232,0.726793587174349,38.3567477397027,113.10139890738,52.9589448630841,8.85766968039634,-150.80186520984,-70.6119264841121,53.6072087100495,-18.8502331512301,-8.82649081051402,0,0,0,12.7855825799009,37.7004663024601,17.652981621028,0,0,0,
233,0.729939879759519,38.7128553162612,113.263597289144,50.1441419344037,8.38285957831843,-151.018129718859,-66.8588559125383,53.5478574472898,-18.8772662148574,-8.35735698906729,0,0,0,12.9042851054204,37.7545324297147,16.7147139781346,0,0,0,
234,0.733086172344689,39.0694592709965,113.416926853462,47.3213888962029,7.90738763867132,-151.222569137949,-63.0951851949372,53.4884234548339,-18.9028211422437,-7.88689814936715,0,0,0,13.0231530903322,37.8056422844873,15.7737962987343,0,0,0,
235,0.73623246492986,39.4265316614023,113.561363290678,44.4911332822303,7.43129111813025,-151.415151054237,-59.3215110429737,53.4289113897663,-18.9268938817797,-7.41518888037172,0,0,0,13.1421772204674,37.8537877635593,14.8303777607434,0,0,0,
236,0.73937875751503,39.784044470704,113.696883701098,41.653823815731,6.95460737239465,-151.595844934798,-55.538431754308,53.3693259215493,-18.9494806168497,-6.94230396928849,0,0,0,13.2613481569013,37.8989612336994,13.884607938577,0,0,0,
237,0.7425250501002,40.1419696123007,113.823466598622,38.8099103383045,6.47737385026569,-151.764622131496,-51.7465471177393,53.3096717312832,-18.970577766437,-6.46831838971741,0,0,0,13.3806565374336,37.941155532874,12.9366367794348,0,0,0,
238,0.745671342685371,40.5002789342183,113.941091914147,35.9598437385836,5.99962808770889,-151.921455885529,-47.9464583181115,53.2499535109636,-18.9901819856912,-5.99330728976393,0,0,0,13.5000929780728,37.9803639713823,11.9866145795279,0,0,0,
239,0.748817635270541,40.8589442235728,114.049740998752,33.104075880749,5.52140770190297,-152.06632133167,-44.1387678409986,53.1901759627379,-19.0082901664587,-5.51734598012483,0,0,0,13.6196480745243,38.0165803329174,11.0346919602497,0,0,0,
240,0.751963927855711,41.2179372110431,114.149396626654,30.2430595328881,5.04275038527592,-152.199195502206,-40.3240793771841,53.1303437981595,-19.0248994377757,-5.04050992214801,0,0,0,13.739312403681,38.0497988755515,10.081019844296,0,0,0,
241,0.755110220440882,41.5772295753533,114.240042997939,27.3772482952106,4.56369389952893,-152.320057330586,-36.5029977269475,53.0704617374411,-19.0400071663232,-4.56287471586843,0,0,0,13.8590765251178,38.0800143326464,9.12574943173686,0,0,0,
242,0.758256513026052,41.9367929477628,114.321665741066,24.507096528133,4.08427606964955,-152.428887654754,-32.6761287041774,53.0105345087062,-19.0536109568443,-4.08451608802217,0,0,0,13.9789309825876,38.1072219136886,8.16903217604435,0,0,0,
243,0.761402805611222,42.296598916564,114.394251915146,21.6330592802414,3.60453477791464,-152.525669220194,-28.8440790403219,52.9505668472393,-19.0657086525243,-3.60550988004024,0,0,0,14.0988663055213,38.1314173050485,7.21101976008047,0,0,0,
244,0.764549098196393,42.6566190315867,114.457790011994,18.7555922161458,3.12450795788438,-152.610386682659,-25.0074562881943,52.8905634947355,-19.0762983353324,-3.12593203602429,0,0,0,14.2188730105289,38.1525966706648,6.25186407204859,0,0,0,
245,0.767695390781563,43.0168248087089,114.512269957956,15.8751515442371,2.64423358838808,-152.683026610608,-21.1668687256495,52.8305291985485,-19.085378326326,-2.64585859070618,0,0,0,14.338941602903,38.170756652652,5.29171718141237,0,0,0,
246,0.770841683366734,43.3771877343729,114.557683115501,12.9921939443572,2.16374968750281,-152.743577487334,-17.3229252591429,52.7704687109378,-19.0929471859168,-2.16536565739287,0,0,0,14.4590625781243,38.1858943718335,4.33073131478573,0,0,0,
247,0.773987975951904,43.7376792701056,114.594022284593,10.1071764953946,1.68309430652582,-152.792029712791,-13.4762353271928,52.7103867883157,-19.0990037140988,-1.6845294158991,0,0,0,14.5792264233685,38.1980074281977,3.36905883179819,0,0,0,
248,0.777134268537074,44.0982708570437,114.621281703835,7.22055660281679,1.2023055239417,-152.828375605114,-9.62740880375573,52.6502881904927,-19.1035469506392,-1.20342610046947,0,0,0,14.6994236190146,38.2070939012784,2.40685220093893,0,0,0,
249,0.780280561122245,44.4589339204611,114.639457051379,4.33279192615097,0.721421439385153,-152.852609401838,-5.77705590153462,52.5901776799231,-19.1065761752298,-0.722131987691828,0,0,0,14.8196446401537,38.2131523504595,1.44426397538366,0,0,0,
250,0.783426853707415,44.8196398742995,114.648545445611,1.44434030642444,0.240480167600658,-152.864727260814,-1.92578707523258,52.5300600209501,-19.1080909076018,-0.240723384404073,0,0,0,14.9398799580998,38.2161818152036,0.481446768808145,0,0,0,
251,0.786573146292585,45.1803601257005,114.648545445611,-1.44434030642438,-0.240480167600644,-152.864727260814,1.92578707523251,52.4699399790499,-19.1080909076018,0.240723384404063,0,0,0,15.0601200419002,38.2161818152036,-0.481446768808127,0,0,0,
252,0.789719438877756,45.5410660795389,114.639457051379,-4.33279192615091,-0.721421439385139,-152.852609401838,5.77705590153455,52.4098223200769,-19.1065761752298,0.722131987691818,0,0,0,15.1803553598463,38.2131523504595,-1.44426397538364,0,0,0,
253,0.792865731462926,45.9017291429562,114.621281703835,-7.22055660281664,-1.20230552394166,-152.828375605114,9.62740880375552,52.3497118095073,-19.1035469506392,1.20342610046944,0,0,0,15.3005763809854,38.2070939012784,-2.40685220093888,0,0,0,
254,0.796012024048096,46.2623207298944,114.594022284593,-10.1071764953945,-1.68309430652582,-152.792029712791,13.4762353271927,52.2896132116843,-19.0990037140988,1.68452941589909,0,0,0,15.4207735766315,38.1980074281977,-3.36905883179817,0,0,0,
255,0.799158316633267,46.6228122656271,114.557683115501,-12.992193944357,-2.16374968750279,-152.743577487334,17.3229252591427,52.2295312890622,-19.0929471859168,2.16536565739284,0,0,0,15.5409374218757,38.1858943718335,-4.33073131478568,0,0,0,
256,0.802304609218437,46.9831751912911,114.512269957956,-15.8751515442371,-2.64423358838808,-152.683026610608,21.1668687256494,52.1694708014515,-19.085378326326,2.64585859070618,0,0,0,15.661058397097,38.170756652652,-5.29171718141235,0,0,0,
257,0.805450901803607,47.3433809684133,114.457790011994,-18.7555922161457,-3.12450795788437,-152.610386682659,25.0074562881943,52.1094365052645,-19.0762983353324,3.12593203602428,0,0,0,15.7811269894711,38.1525966706648,-6.25186407204857,0,0,0,
258,0.808597194388778,47.703401083436,114.394251915146,-21.6330592802413,-3.60453477791461,-152.525669220194,28.8440790403217,52.0494331527607,-19.0657086525243,3.60550988004021,0,0,0,15.9011336944787,38.1314173050485,-7.21101976008042,0,0,0,
259,0.811743486973948,48.0632070522372,114.321665741066,-24.507096528133,-4.08427606964953,-152.428887654754,32.6761287041773,51.9894654912938,-19.0536109568443,4.08451608802216,0,0,0,16.0210690174124,38.1072219136886,-8.16903217604433,0,0,0,
260,0.814889779559118,48.4227704246467,114.240042997939,-27.3772482952105,-4.56369389952891,-152.320057330586,36.5029977269474,51.9295382625589,-19.0400071663232,4.56287471586842,0,0,0,16.1409234748822,38.0800143326464,-9.12574943173684,0,0,0,
261,0.818036072144289,48.7820627889569,114.149396626654,-30.243059532888,-5.04275038527591,-152.199195502206,40.324079377184,51.8696562018405,-19.0248994377757,5.040509922148,0,0,0,16.260687596319,38.0497988755515,-10.081019844296,0,0,0,
262,0.821182364729459,49.1410557764272,114.049740998752,-33.1040758807489,-5.52140770190294,-152.06632133167,44.1387678409985,51.8098240372621,-19.0082901664587,5.51734598012482,0,0,0,16.3803519254757,38.0165803329174,-11.0346919602496,0,0,0,
263,0.824328657314629,49.4997210657816,113.941091914147,-35.9598437385834,-5.99962808770884,-151.921455885529,47.9464583181111,51.7500464890364,-18.9901819856912,5.99330728976389,0,0,0,16.4999070219272,37.9803639713823,-11.9866145795278,0,0,0,
264,0.8274749498998,49.8580303876993,113.823466598622,-38.8099103383043,-6.47737385026566,-151.764622131496,51.7465471177391,51.6903282687168,-18.970577766437,6.46831838971739,0,0,0,16.6193434625664,37.941155532874,-12.9366367794348,0,0,0,
265,0.83062124248497,50.215955529296,113.696883701098,-41.6538238157309,-6.95460737239463,-151.595844934798,55.5384317543079,51.6306740784507,-18.9494806168497,6.94230396928848,0,0,0,16.7386518430987,37.8989612336994,-13.884607938577,0,0,0,
266,0.83376753507014,50.5734683385977,113.561363290678,-44.4911332822303,-7.43129111813023,-151.415151054237,59.3215110429737,51.5710886102337,-18.9268938817797,7.41518888037171,0,0,0,16.8578227795326,37.8537877635593,-14.8303777607434,0,0,0,
267,0.836913827655311,50.9305407290035,113.416926853462,-47.3213888962029,-7.90738763867131,-151.222569137949,63.0951851949372,51.5115765451661,-18.9028211422437,7.88689814936715,0,0,0,16.9768469096678,37.8056422844873,-15.7737962987343,0,0,0,
268,0.840060120240481,51.2871446837388,113.263597289144,-50.1441419344036,-8.3828595783184,-151.018129718859,66.8588559125381,51.4521425527102,-18.8772662148574,8.35735698906726,0,0,0,17.0957148945796,37.7545324297147,-16.7147139781345,0,0,0,
269,0.843206412825651,51.6432522602973,113.10139890738,-52.958944863084,-8.85766968039633,-150.80186520984,70.6119264841121,51.3927912899505,-18.8502331512301,8.82649081051401,0,0,0,17.2144174200991,37.7004663024601,-17.652981621028,0,0,0,
270,0.846352705410822,51.9988355948707,112.930357423934,-55.7653514089468,-9.33178079316099,-150.573809898579,74.3538018785957,51.3335274008549,-18.8217262373223,9.29422523482446,0,0,0,17.3329451982902,37.6434524746447,-18.5884504696489,0,0,0,
271,0.849498997995992,52.3538669067673,112.7504999566,-58.5629166299002,-9.80515587568968,-150.333999942133,78.0838888398669,51.2743555155388,-18.7917499927666,9.76048610498337,0,0,0,17.4512889689224,37.5834999855332,-19.5209722099667,0,0,0,
272,0.852645290581162,52.7083185028152,112.561855020903,-61.3511969856014,-10.2777580037537,-150.082473361203,81.8015959808019,51.2152802495308,-18.7603091701504,10.2251994976002,0,0,0,17.5694395009384,37.5206183403009,-20.4503989952005,0,0,0,
273,0.855791583166333,53.0621627817543,112.364452525579,-64.1297504077782,-10.7495503756724,-149.819270034105,85.5063338770376,51.1563062030409,-18.7274087542631,10.6882917346297,0,0,0,17.6873875939181,37.4548175085263,-21.3765834692594,0,0,0,
274,0.858937875751503,53.4153722386112,112.158323767833,-66.898136370316,-11.2204963181483,-149.544431690444,89.1975151604214,51.0974379602315,-18.6930539613055,11.1496893950527,0,0,0,17.8051240795371,37.386107922611,-22.2993787901053,0,0,0,
275,0.862084168336673,53.7679194690606,111.943501428375,-69.6559159591013,-11.6905592920808,-149.258001904501,92.874554612135,51.0386800884899,-18.6572502380626,11.6093193265169,0,0,0,17.9226398230202,37.3145004761251,-23.2186386530338,0,0,0,
276,0.865230460921844,54.1197771737701,111.720019566242,-72.4026519416097,-12.1597028983601,-148.960026088323,96.5368692554796,50.980037137705,-18.6200032610404,12.067108656935,0,0,0,18.03992572459,37.2400065220807,-24.1342173138699,0,0,0,
277,0.868376753507014,54.470918162728,111.487913613394,-75.1379088362268,-12.6278908836373,-148.650551484526,100.183878448302,50.9215136395453,-18.5813189355657,12.5229848060378,0,0,0,18.1569727209093,37.1626378711314,-25.0459696120756,0,0,0,
278,0.871523046092184,54.8213153595546,111.2472203691,-77.8612529812915,-13.0950871460727,-148.3296271588,103.815003975055,50.8631141067409,-18.54120339485,12.9768754968819,0,0,0,18.2737717865182,37.0824067897001,-25.9537509937638,0,0,0,
279,0.874669338677355,55.1709418057946,110.997977994102,-80.5722526038515,-13.5612557410595,-147.997303992136,107.429670138469,50.8048430323676,-18.499662999017,13.4287087673086,0,0,0,18.3903139352649,36.9993259980339,-26.8574175346172,0,0,0,
280,0.877815631262525,55.5197706651918,110.740226004564,-83.270477888118,-14.0263608869224,-147.653634672752,111.027303850824,50.7467048891347,-18.4567043340939,13.878412981353,0,0,0,18.5065902217306,36.9134086681879,-27.756825962706,0,0,0,
281,0.880961923847695,55.8677752279432,110.474005265809,-85.9555010436117,-14.490366970591,-147.298673687745,114.607334724816,50.6887041286761,-18.4123342109682,14.325916840602,0,0,0,18.6225917426477,36.8246684219363,-28.6518336812039,0,0,0,
282,0.884108216432866,56.2149289149342,110.199357985839,-88.6268963729863,-14.9532385532456,-146.932477314452,118.169195163982,50.6308451808443,-18.3665596643065,14.7711493954977,0,0,0,18.7383096383114,36.733119328613,-29.5422987909954,0,0,0,
283,0.887254509018036,56.5612052819522,109.916327708643,-91.2842403395209,-15.4149403759362,-146.555103611524,121.712320452695,50.573132453008,-18.3193879514405,15.2140400565868,0,0,0,18.8537350939841,36.638775902881,-30.4280801131736,0,0,0,
284,0.890400801603206,56.9065780238796,109.624959307293,-93.9271116342702,-15.8754373651728,-146.166612409724,125.236148845694,50.5155703293534,-18.2708265512155,15.6545186057117,0,0,0,18.9688593412932,36.541653102431,-31.3090372114234,0,0,0,
285,0.893547094188377,57.2510209788641,109.32529897683,-96.5550912428598,-16.3346946384855,-145.76706530244,128.740121657146,50.4581631701893,-18.220883162805,16.0925152071433,0,0,0,19.0836736596214,36.44176632561,-32.1850304142866,0,0,0,
286,0.896693386773547,57.5945081324667,109.017394226941,-99.1677625119205,-16.7926775099556,-145.356525635921,132.223683349227,50.4009153112556,-18.1695657044901,16.5279604186534,0,0,0,19.1981693774889,36.3391314089802,-33.0559208373068,0,0,0,
287,0.899839679358717,57.9370136217858,108.701293874423,-101.764711215145,-17.2493514957143,-144.935058499231,135.686281620193,50.3438310630357,-18.1168823124038,16.9607852025242,0,0,0,19.3123378739286,36.2337646248076,-33.9215704050483,0,0,0,
288,0.902985971943888,58.278511739558,108.377048035449,-104.345525618963,-17.7046823194107,-144.502730713932,139.12736749195,50.2869147100737,-18.0628413392415,17.3909209364938,0,0,0,19.4261705798527,36.125682678483,-34.7818418729875,0,0,0,
289,0.906132264529058,58.618976938234,108.044708117618,-106.909796547817,-18.1586359176453,-144.05961082349,142.54639539709,50.2301705102943,-18.0074513529363,17.8182994246362,0,0,0,19.5396589794113,36.0149027058725,-35.6365988492724,0,0,0,
290,0.909278557114228,58.9583838340284,107.704326811804,-109.45711744904,-18.6111784453712,-143.605769082406,145.942823265387,50.1736026943286,-17.9507211353007,18.2428529081734,0,0,0,19.6527946113428,35.9014422706014,-36.4857058163467,0,0,0,
291,0.912424849699399,59.2967072109448,107.355958083807,-111.987084457307,-19.0622762812597,-143.141277445076,149.316112609743,50.1172154648425,-17.8926596806345,18.6645140762179,0,0,0,19.7655690703149,35.7853193612691,-37.3290281524357,0,0,0,
292,0.915571142284569,59.6339220247734,106.999657165792,-114.499296458669,-19.5118960330312,-142.66620955439,152.665728611558,50.0610129958711,-17.8332761942987,19.0832160764448,0,0,0,19.8779740082578,35.6665523885974,-38.1664321528896,0,0,0,
293,0.918717434869739,59.9700034070617,106.635480547535,-116.993355154146,-19.9600045427489,-142.180640730046,155.991140205528,50.0049994321564,-17.7725800912558,19.498892525691,0,0,0,19.9900011356872,35.5451601825116,-38.997785051382,0,0,0,
294,0.92186372745491,60.3049266690572,106.263485967464,-119.468865122878,-20.4065688920763,-141.684647956619,159.291820163837,49.9491788884905,-17.7105809945774,19.9114775204796,0,0,0,20.1016422230191,35.4211619891547,-39.8229550409593,0,0,0,
295,0.92501002004008,60.6386673056218,105.88373240351,-121.925433884813,-20.8515564074957,-141.178309871346,162.567245179751,49.893555449063,-17.6472887339183,20.3209056474689,0,0,0,20.2128891018739,35.2945774678366,-40.6418112949378,0,0,0,
296,0.928156312625251,60.9712009991168,105.49628006375,-124.362671962938,-21.294934665489,-140.661706751666,165.816895950584,49.8381331668139,-17.5827133439583,20.727111993823,0,0,0,20.3237336663723,35.1654266879165,-41.454223987646,0,0,0,
297,0.931302605210421,61.3025036232585,105.101190376865,-126.780192945023,-21.736671497678,-140.134920502487,169.04025726003,49.7829160627903,-17.5168650628109,21.1300321575038,0,0,0,20.4341678744195,35.0337301256218,-42.2600643150076,0,0,0,
298,0.934448897795591,61.6325512469433,104.698525982403,-129.177613544889,-22.1767349959244,-139.598034643204,172.236818059852,49.7279081255095,-17.4497543304006,21.5296022574814,0,0,0,20.5441837489811,34.8995086608011,-43.0592045149629,0,0,0,
299,0.937595190380762,61.9613201380418,104.288350720842,-131.554553663174,-22.615093517389,-139.051134294456,175.406071550899,49.6731133103264,-17.381391786807,21.9257589438623,0,0,0,20.6537733793473,34.762783573614,-43.8515178877247,0,0,0,
300,0.940741482965932,62.2887867671613,103.870729623472,-133.910636447598,-23.0517156895484,-138.49430616463,178.547515263464,49.6185355388065,-17.3117882705787,22.318439407933,0,0,0,20.7629289223871,34.6235765411574,-44.6368788158659,0,0,0,
301,0.943887775551102,62.6149278113766,103.445728902085,-136.245488352708,-23.4865704151688,-137.927638536113,181.660651136944,49.5641786981039,-17.2409548170141,22.707581392118,0,0,0,20.8716426037922,34.4819096340283,-45.415162784236,0,0,0,
302,0.947034068136273,62.9397201579273,103.013415938475,-138.558739199105,-23.9196268772364,-137.3512212513,184.744985598806,49.5100466403455,-17.1689026564125,23.0931231998508,0,0,0,20.9799067193091,34.3378053128249,-46.1862463997015,0,0,0,
303,0.950180360721443,63.2631409078826,102.573859273757,-140.850022232131,-24.3508545438435,-136.765145698343,187.800029642841,49.4561431820196,-17.0956432122929,23.4750037053551,0,0,0,21.0877136359609,34.1912864245858,-46.9500074107103,0,0,0,
304,0.953326653306613,63.5851673797717,102.127128597501,-143.118974180019,-24.780223173029,-136.169504796668,190.825298906693,49.4024721033714,-17.0211880995835,23.8531623633366,0,0,0,21.1950557932572,34.042376199167,-47.7063247266731,0,0,0,
305,0.956472945891784,63.9057771131797,101.673294736679,-145.365235311488,-25.207702817573,-135.564392982239,193.820313748651,49.3490371478034,-16.9455491227799,24.2275392185813,0,0,0,21.3019257043932,33.8910982455598,-48.4550784371627,0,0,0,
306,0.959619238476954,64.2249478723087,101.212429644441,-147.588449492773,-25.6332638297449,-134.949906192588,196.784599323697,49.2958420212819,-16.8687382740735,24.5980749154621,0,0,0,21.4083159574362,33.7374765481469,-49.1961498309242,0,0,0,
307,0.962765531062124,64.5426576495032,100.744606388702,-149.788264244091,-26.0568768660042,-134.326141851602,199.717685658788,49.2428903917495,-16.7907677314503,24.9647107073485,0,0,0,21.5142192165011,33.5815354629005,-49.929421414697,0,0,0,
308,0.965911823647295,64.8588846687392,100.269899140561,-151.964330795527,-26.4785128916522,-133.693198854081,202.619107727369,49.1901858885435,-16.7116498567601,25.3273884659211,0,0,0,21.6196282229131,33.4232997135202,-50.6547769318423,0,0,0,
309,0.969058116232465,65.1736073890768,99.7883831625408,-154.116304142325,-26.8981431854357,-133.051177550054,205.4884055231,49.1377321018205,-16.6313971937568,25.6860506903875,0,0,0,21.7245357963589,33.2627943875136,-51.3721013807749,0,0,0,
310,0.972204408817635,65.4868045080754,99.3001347966553,-156.24384309959,-27.3157393441005,-132.400179728874,208.325124132787,49.0855325819874,-16.5500224661092,26.0406405165983,0,0,0,21.8289348360251,33.1000449322184,-52.0812810331967,0,0,0,
311,0.975350701402806,65.798454965171,98.8052314523051,-158.346610356381,-27.7312732868947,-131.740308603073,211.128813808509,49.0335908391382,-16.4675385753842,26.3911017260636,0,0,0,21.9328183217237,32.9350771507684,-52.7822034521272,0,0,0,
312,0.978496993987976,66.1085379450154,98.3037515940054,-160.42427252919,-28.1447172600206,-131.071668792007,213.89903003892,48.9819103424974,-16.3839585990009,26.737378754865,0,0,0,22.0361793150051,32.7679171980018,-53.47475750973,0,0,0,
313,0.981643286573146,66.4170328807762,97.7957747289457,-162.476500214796,-28.556043841035,-130.394366305261,216.635333619727,48.9304945198706,-16.2992957881576,27.0794167024659,0,0,0,22.1390109602587,32.5985915763152,-54.1588334049319,0,0,0,
314,0.984789579158317,66.7239194573977,97.2813813943843,-164.502968042492,-28.965225943197,-129.708508525846,219.337290723323,48.8793467571004,-16.2135635657307,27.4171613404154,0,0,0,22.2413064857992,32.4271271314614,-54.8343226808308,0,0,0,
315,0.987935871743487,67.0291776148217,96.7606531448796,-166.503354725674,-29.3722368197623,-129.014204193173,222.004472967565,48.8284703975297,-16.1267755241466,27.7505591209457,0,0,0,22.3430592049406,32.2535510482932,-55.5011182418914,0,0,0,
316,0.991082164328657,67.3327875511679,96.2336725393596,-168.477343112774,-29.7770500682239,-128.311563385813,224.636457483698,48.777868741472,-16.0389454232266,28.0795571854623,0,0,0,22.444262517056,32.0778908464532,-56.1591143709246,0,0,0,
317,0.994228456913828,67.6347297258735,95.7005231280333,-170.424620237545,-30.179639634498,-127.600697504044,227.232826983393,48.7275450456878,-15.9500871880056,28.4041033729242,0,0,0,22.5449099086245,31.9001743760111,-56.8082067458483,0,0,0,
318,0.997374749498998,67.934984862791,95.1612894391435,-172.344877368682,-30.5799798170547,-126.881719252191,229.793169824909,48.6775025228682,-15.8602149065239,28.7241462281137,0,0,0,22.6449949542637,31.7204298130478,-57.4482924562273,0,0,0,
319,1.00052104208417,68.2335339532449,94.6160569655659,-174.237810058768,-30.9780452709932,-126.154742620754,232.317080078357,48.6277443411259,-15.7693428275943,29.0396350097946,0,0,0,22.7445113177483,31.5386856551886,-58.0792700195892,0,0,0,
320,1.00366733466934,68.5303582590446,94.0649121512538,-176.103118192542,-31.3738110120595,-125.419882868338,234.804157590056,48.5782736234926,-15.6774853585423,29.350519698757,0,0,0,22.8434527530149,31.3549707170846,-58.701039397514,0,0,0,
321,1.00681362725451,68.8254393154561,93.5079423775339,-177.940506034484,-31.7672524206081,-124.677256503378,237.254008045978,48.529093447424,-15.5846570629223,29.6567510057473,0,0,0,22.941813105152,31.1693141258446,-59.3135020114946,0,0,0,
322,1.00995991983968,69.1187589341288,92.9452359492514,-179.749682275698,-32.1583452455051,-123.926981265669,239.666243034264,48.4802068443119,-15.4908726582086,29.958280379283,0,0,0,23.0395863113763,30.9817453164171,-59.9165607585659,0,0,0,
323,1.01310621242485,69.4102992059798,92.3768820807704,-181.530360080101,-32.5470656079731,-123.169176107694,242.040480106802,48.4316167990034,-15.3961470134617,30.2550600133502,0,0,0,23.1367664019933,30.7922940269235,-60.5101200267004,0,0,0,
324,1.01625250501002,69.7000425040326,91.8029708818292,-183.282257129899,-32.9333900053768,-122.403961175772,244.376342839866,48.3833262493279,-15.3004951469715,30.5470428549832,0,0,0,23.2333475013442,30.6009902939431,-61.0940857099664,0,0,0,
325,1.01939879759519,69.9879714862124,91.2235933432535,-185.005095670346,-33.3172953149499,-121.631457791005,246.673460893795,48.3353380856313,-15.2039322238756,30.8341826117243,0,0,0,23.3293238287375,30.4078644477512,-61.6683652234487,0,0,0,
326,1.02254509018036,70.2740690980953,90.6388413225307,-186.69860255378,-33.6987587974604,-120.851788430041,248.931470071707,48.2876551503174,-15.1064735537551,31.1164337589634,0,0,0,23.4246896993651,30.2129471075102,-62.2328675179268,0,0,0,
327,1.02569138276553,70.5583185756122,90.0488075292463,-188.362509282932,-34.0777581008163,-120.065076705662,251.150012377243,48.240280237398,-15.0081345882077,31.3937515471554,0,0,0,23.5194395252041,30.0162691764154,-62.7875030943108,0,0,0,
328,1.0288376753507,70.8407034477067,89.4535855103848,-189.996552053493,-34.454271263609,-119.27144734718,253.328736071324,48.1932160920489,-14.9089309183975,31.6660920089155,0,0,0,23.6135678159022,29.8178618367949,-63.332184017831,0,0,0,
329,1.03198396793587,71.1212075389466,88.8532696354989,-191.600471795938,-34.8282767185955,-118.471026180665,255.467295727918,48.1464654101756,-14.8088782725831,31.9334119659897,0,0,0,23.7070691796489,29.6177565451663,-63.8668239319795,0,0,0,
330,1.03513026052104,71.3998149720883,88.2479550817472,-193.174014216604,-35.1997532961177,-117.663940108996,257.565352288805,48.1000308379853,-14.7079925136245,32.1956690361006,0,0,0,23.7999383240294,29.4159850272491,-64.3913380722012,0,0,0,
331,1.03827655310621,71.6765101705939,87.6377378188046,-194.716929838,-35.5686802274585,-116.850317091739,259.622573117334,48.0539149715677,-14.6062896364674,32.4528216396667,0,0,0,23.8921700568646,29.2125792729349,-64.9056432793334,0,0,0,
332,1.04142284569138,71.9512778611013,87.0227145936465,-196.22897403837,-35.9350371481351,-116.030286124862,261.638632051161,48.0081203564831,-14.5037857656077,32.7048290063951,0,0,0,23.9837592870338,29.0075715312155,-65.4096580127901,0,0,0,
333,1.04456913827655,72.2241030758453,86.4029829152103,-197.709907090469,-36.2988041011271,-115.20397722028,263.613209453958,47.9626494873591,-14.4004971525351,32.9516511817448,0,0,0,24.0747010252818,28.8009943050701,-65.9033023634896,0,0,0,
334,1.04771543086172,72.4949711550308,85.778641038936,-199.159494199572,-36.6599615400411,-114.371521385248,265.545992266096,47.9175048074949,-14.296440173156,33.193249033262,0,0,0,24.1649903850103,28.592880346312,-66.3864980665239,0,0,0,
335,1.05086172344689,72.7638677491569,85.1497879511875,-200.577505540702,-37.0184903322091,-113.533050601583,267.43667405427,47.8726887084739,-14.1916313251979,33.4295842567837,0,0,0,24.2546225830523,28.3832626503958,-66.8591685135674,0,0,0,
336,1.05400801603206,73.030778821292,84.5165233535597,-201.963716295067,-37.3743717617227,-112.688697804746,269.284955060089,47.8282035297847,-14.0860872255933,33.6606193825112,0,0,0,24.3435929404307,28.1721744511866,-67.3212387650224,0,0,0,
337,1.05715430861723,73.2956906492997,83.8789476470707,-203.317906685702,-37.7275875323996,-111.838596862761,271.090542247602,47.78405155845,-13.9798246078451,33.8863177809503,0,0,0,24.4318968830999,27.9596492156902,-67.7726355619006,0,0,0,
338,1.0603006012024,73.5585898280137,83.2371619162442,-204.639862012314,-38.0781197706849,-110.982882554992,272.853149349752,47.7402350286644,-13.872860319374,34.106643668719,0,0,0,24.5195299426712,27.7457206387481,-68.2132873374379,0,0,0,
339,1.06344689378758,73.8194632713634,82.5912679130823,-205.929372685324,-38.4259510284845,-110.121690550776,274.572496913766,47.6967561214394,-13.7652113188471,34.3215621142207,0,0,0,24.6064877571211,27.5304226376941,-68.6431242284414,0,0,0,
340,1.06659318637275,74.078298214449,81.9413680409342,-207.186234259095,-38.771064285932,-109.255157387912,276.24831234546,47.6536169642585,-13.656894673489,34.5310390431824,0,0,0,24.692766071483,27.3137893469781,-69.0620780863649,0,0,0,
341,1.06973947895792,74.3350822155647,81.2875653382597,-208.410247464343,-39.1134429540862,-108.383420451013,277.880329952458,47.6108196307392,-13.5479275563766,34.7350412440572,0,0,0,24.7783607385216,27.0958551127532,-69.4700824881144,0,0,0,
342,1.07288577154309,74.5898031581716,80.6299634622935,-209.601218239737,-39.4530708775622,-107.506617949725,279.468290986316,47.5683661403047,-13.4383272437156,34.9335363732895,0,0,0,24.8632677193905,26.8766544874312,-69.867072746579,0,0,0,
343,1.07603206412826,74.8424492528189,79.9686666726109,-210.758957762659,-39.7899323370919,-106.624888896815,281.011943683545,47.5262584578635,-13.3281111121018,35.1264929604432,0,0,0,24.947483084273,26.6562222242036,-70.2529859208863,0,0,0,
344,1.07917835671343,75.0930090390126,79.3037798145975,-211.883282479145,-40.1240120520168,-105.73837308613,282.511043305527,47.4844984934979,-13.2172966357662,35.3138804131909,0,0,0,25.0310030130042,26.4345932715325,-70.6277608263818,0,0,0,
345,1.0823246492986,75.3414713870328,78.635408302827,-212.974014132987,-40.4552951827104,-104.847211070436,283.965352177317,47.4430881021612,-13.1059013838045,35.4956690221646,0,0,0,25.1138237956776,26.211802767609,-70.9913380443292,0,0,0,
346,1.08547094188377,75.5878254996983,77.9636581043478,-214.030979793993,-40.7837673329311,-103.95154413913,285.374639725324,47.4020290833836,-12.9939430173913,35.6718299656655,0,0,0,25.1959418332328,25.9878860347826,-71.3436599313311,0,0,0,
347,1.08861723446894,75.8320609140782,77.2886357218827,-215.054011885404,-41.1094145521043,-103.051514295844,286.738682513872,47.361323180987,-12.8814392869804,35.842335314234,0,0,0,25.2773536380261,25.7628785739609,-71.684670628468,0,0,0,
348,1.09176352705411,76.074167503151,76.6104481769434,-216.042948210463,-41.4322233375347,-102.147264235924,288.057264280618,47.3209720828082,-12.7684080294906,36.0071580350772,0,0,0,25.3580558343837,25.5368160589811,-72.0143160701544,0,0,0,
349,1.09490981963928,76.3141354774102,75.9292029928625,-216.997631978133,-41.7521806365469,-101.238937323817,289.330175970844,47.2809774204316,-12.6548671654771,36.1662719963555,0,0,0,25.4380451591367,25.3097343309542,-72.332543992711,0,0,0,
350,1.09805611222445,76.551955386416,75.2450081777466,-217.91791182795,-42.0692738485546,-100.326677570329,290.5572157706,47.2413407689307,-12.5408346962911,36.319651971325,0,0,0,25.5173184621387,25.0816693925822,-72.63930394265,0,0,0,
351,1.10120240480962,76.787618120294,74.5579722073519,-218.803641854026,-42.3834908270586,-99.4106296098025,291.738189138702,47.2020636466177,-12.4263287012253,36.4672736423377,0,0,0,25.5958727067647,24.8526574024506,-72.9345472846754,0,0,0,
352,1.10434869739479,77.0211149111795,73.8682040078858,-219.654681628179,-42.6948198815726,-98.4909386771811,292.872908837572,47.1631475148034,-12.3113673346476,36.6091136046965,0,0,0,25.6737049703932,24.6227346692953,-73.218227209393,0,0,0,
353,1.10749498997996,77.2524373346074,73.1758129387376,-220.470896222196,-43.0032497794765,-97.5677505849834,293.961194962928,47.1245937775654,-12.1959688231229,36.745149370366,0,0,0,25.7508124448691,24.3919376462459,-73.490298740732,0,0,0,
354,1.11064128256513,77.481577310848,72.4809087751394,-221.252156229229,-43.3087697477973,-96.6412117001858,295.002874972305,47.0864037815253,-12.0801514625232,36.8753593715381,0,0,0,25.8271924369493,24.1603029250465,-73.7507187430762,0,0,0,
355,1.1137875751503,77.708527106188,71.7836016907625,-221.998337784307,-43.6113694749173,-95.7114689210167,295.997783712409,47.0485788156353,-11.9639336151271,36.9997229640511,0,0,0,25.9028423687293,23.9278672302542,-73.9994459281022,0,0,0,
356,1.11693386773547,77.9332793341567,71.0840022402495,-222.709322583979,-43.9110391122089,-94.778669653666,296.945763445305,47.0111201109739,-11.8473337067083,37.1182204306631,0,0,0,25.9777597780522,23.6946674134165,-74.2364408613262,0,0,0,
357,1.12008016032064,78.1558269566968,70.3822213416865,-223.384997905066,-44.2077692755957,-93.8429617889153,297.846663873422,46.9740288405505,-11.7303702236144,37.2308329841777,0,0,0,26.0519423188989,23.4607404472288,-74.4616659683555,0,0,0,
358,1.12322645290581,78.3761632852806,69.6783702590176,-224.025256622538,-44.5015510470407,-92.9044936786901,298.700342163384,46.9373061191199,-11.6130617098363,37.3375427704231,0,0,0,26.1253877617602,23.2261234196725,-74.6750855408461,0,0,0,
359,1.12637274549098,78.5942819819702,68.9725605844044,-224.629997226493,-44.7923759759603,-91.9634141125392,299.506662968657,46.900953003005,-11.4954267640674,37.4383328710821,0,0,0,26.1980939939901,22.9908535281348,-74.8766657421642,0,0,0,
360,1.12951903807615,78.8101770604226,68.2649042205337,-225.199123838251,-45.0802360805635,-91.019872294045,300.265498451001,46.8649704899296,-11.3774840367556,37.5331873063752,0,0,0,26.2700590201409,22.7549680735112,-75.0663746127504,0,0,0,
361,1.13266533066132,79.0238428868385,67.5555133628762,-225.732546225561,-45.365123849118,-90.0740178171683,300.976728300748,46.8293595188603,-11.259252227146,37.6220910375935,0,0,0,26.3412809622795,22.5185044542921,-75.244182075187,0,0,0,
362,1.13581162324649,79.2352741808556,66.8445004818977,-226.230179816901,-45.6470322411408,-89.1260006425303,301.640239755868,46.7941209698574,-11.1407500803163,37.7050299694834,0,0,0,26.4117580602852,22.2815001606326,-75.4100599389669,0,0,0,
363,1.13895791583166,79.4444660163861,66.1319783052282,-226.691945714887,-45.9259546885147,-88.1759710736376,302.25592761985,46.7592556639357,-11.0219963842047,37.7819909524812,0,0,0,26.4814886721287,22.0439927684094,-75.5639819049624,0,0,0,
364,1.14210420841683,79.651413822397,65.418059799789,-227.117770708786,-46.2018850965294,-87.2240797330521,302.823694278382,46.7247643629338,-10.9030099666315,37.8529617847977,0,0,0,26.5504712741323,21.806019933263,-75.7059235695954,0,0,0,
365,1.145250501002,79.8561133836358,64.7028581538828,-227.507587286119,-46.4748178448477,-86.2704775385105,303.343449714825,46.690647769394,-10.7838096923138,37.9179312143531,0,0,0,26.6187044612119,21.5676193846276,-75.8358624287062,0,0,0,
366,1.14839679358717,80.0585608412977,63.9864867592477,-227.861333643364,-46.744747788397,-85.3153156789969,303.815111524485,46.6569065264504,-10.6644144598746,37.9768889405607,0,0,0,26.6861869470992,21.3288289197492,-75.9537778811213,0,0,0,
367,1.15154308617234,80.2587526936385,63.2690591930798,-228.17895369576,-47.0116702581846,-84.3587455907731,304.23860492768,46.6235412177269,-10.5448431988466,38.0298256159601,0,0,0,26.7529175645462,21.0896863976933,-76.0596512319201,0,0,0,
368,1.15468937875752,80.4566857965287,62.5506892000262,-228.460397086195,-47.2755810620383,-83.4009189333683,304.613862781593,46.5905523672452,-10.425114866671,38.0767328476991,0,0,0,26.8188952655096,20.8502297333421,-76.1534656953983,0,0,0,
369,1.15783567134269,80.652357363953,61.831490674151,-228.705619193189,-47.5364764852707,-82.4419875655347,304.940825590918,46.5579404393412,-10.3052484456918,38.1176031988648,0,0,0,26.8841191213177,20.6104968913837,-76.2352063977296,0,0,0,
370,1.16098196392786,80.8457649684512,61.1115776408784,-228.914581137971,-47.7943532912683,-81.4821035211712,305.219441517295,46.5257058385915,-10.1852629401464,38.1524301896618,0,0,0,26.9485883228171,20.3705258802928,-76.3048603793236,0,0,0,
371,1.16412825651303,81.0369065415036,60.391064238914,-229.087249790643,-48.0492087220048,-80.5214189852186,305.449666387523,46.4938489097494,-10.0651773731523,38.1812082984404,0,0,0,27.0123021805012,20.1303547463047,-76.3624165968808,0,0,0,
372,1.1672745490982,81.2257803738586,59.670064702149,-229.22359777543,-48.3010404984782,-79.560086269532,305.631463700573,46.4623699376902,-9.9450107836915,38.2039329625716,0,0,0,27.0752601246195,19.890021567383,-76.4078659251432,0,0,0,
373,1.17042084168337,81.412385115804,58.948693341549,-229.323603475023,-48.549846821072,-78.598257788732,305.764804633364,46.431269147366,-9.82478222359151,38.2206005791706,0,0,0,27.137461705268,19.649564447183,-76.4412011583411,0,0,0,
374,1.17356713426854,81.5967197773807,58.2270645270305,-229.387251034007,-48.795626369841,-77.6360860360407,305.849668045342,46.4005467037699,-9.70451075450509,38.2312085056678,0,0,0,27.1989065924602,19.4090215090102,-76.4624170113355,0,0,0,
375,1.17671342685371,81.7787837285399,57.505292669328,-229.414530361369,-49.0383783047199,-76.673723559104,305.886040481826,46.37020271191,-9.584215444888,38.2357550602282,0,0,0,27.25959457618,19.168430889776,-76.4715101204564,0,0,0,
376,1.17985971943888,81.9585766992428,56.7834922018546,-229.405437132107,-49.278102265657,-75.7113229358061,305.873916176142,46.3402372167929,-9.46391536697576,38.2342395220178,0,0,0,27.3195255664143,18.9278307339515,-76.4684790440355,0,0,0,
377,1.18300601202405,82.1360987795035,56.0617775625596,-229.359972787906,-49.5147983726713,-74.7490367500795,305.813297050541,46.3106502034161,-9.34362959375993,38.2266621313176,0,0,0,27.3786995931678,18.6872591875199,-76.4533242626353,0,0,0,
378,1.18615230460922,82.3113504193747,55.3402631757847,-229.278144536918,-49.7484672258329,-73.7870175677129,305.70419271589,46.2814415967709,-9.22337719596411,38.2130240894863,0,0,0,27.4371168064582,18.4467543919282,-76.4260481789725,0,0,0,
379,1.18929859719439,82.4843324288764,54.6190634341222,-229.159965352612,-49.9791099051686,-72.8254179121629,305.54662047015,46.2526112618539,-9.10317723902036,38.1933275587687,0,0,0,27.4947774762921,18.2063544780407,-76.3866551175374,0,0,0,
380,1.19244488977956,82.6550459778676,53.8982926802793,-229.005453971724,-50.2067279704901,-71.8643902403724,305.340605295632,46.2241590036887,-8.98304878004655,38.167575661954,0,0,0,27.5516819926225,17.9660975600931,-76.335151323908,0,0,0,
381,1.19559118236473,82.8234925958603,53.1780651889491,-228.81463489128,-50.4313234611471,-70.9040869185988,305.08617985504,46.1960845673566,-8.86301086482485,38.13577248188,0,0,0,27.6078308652868,17.7260217296497,-76.2715449637601,0,0,0,
382,1.1987374749499,82.9896741717778,52.4584951486932,-228.587538364717,-50.6528988957037,-69.9446601982575,304.783384486289,46.168387638037,-8.74308252478219,38.0979230607861,0,0,0,27.6632247239259,17.4861650495644,-76.1958461215722,0,0,0,
383,1.20188376753507,83.1535929536544,51.7396966438372,-228.324200397082,-50.8714572715391,-68.986262191783,304.432267196109,46.1410678410576,-8.62328277397287,38.0540333995136,0,0,0,27.7178643178848,17.2465655479458,-76.1080667990272,0,0,0,
384,1.20503006012024,83.3152515482796,51.0217836363841,-228.024662739328,-51.0870020643728,-68.0290448485121,304.032883652437,46.1141247419534,-8.50363060606401,38.0041104565546,0,0,0,27.7717505160932,17.007261212128,-76.0082209131092,0,0,0,
385,1.20817635270541,83.4746529207845,50.304869947945,-227.688972881692,-51.2995372277127,-67.0731599305934,303.585297175589,46.0875578465359,-8.38414499132417,37.9481621469486,0,0,0,27.8248843069282,16.7682899826483,-75.8963242938973,0,0,0,
386,1.21132264529058,83.631800394172,49.5890692416942,-227.317184046166,-51.5090671922293,-66.1187589889256,303.089578728222,46.0613666009713,-8.2648448736157,37.8861973410277,0,0,0,27.8772667980573,16.5296897472314,-75.7723946820554,0,0,0,
387,1.21446893787575,83.7866976487893,48.874495004348,-226.90935517806,-51.7155968650524,-65.1659933391307,302.54580690408,46.0355503918685,-8.14574916739133,37.8182258630101,0,0,0,27.9288992162631,16.2914983347827,-75.6364517260201,0,0,0,
388,1.21761523046092,83.9393487217452,48.1612605281721,-226.465550936655,-51.9191316289936,-64.2150140375628,301.95406791554,46.0101085463758,-8.02687675469535,37.7442584894426,0,0,0,27.9797829072484,16.0537535093907,-75.4885169788851,0,0,0,
389,1.22076152304609,84.0897580062695,47.4494788930193,-225.985841684952,-52.1196773416926,-63.265971857359,301.314455579936,45.9850403322884,-7.90824648216988,37.664306947492,0,0,0,28.0299193354232,15.8164929643398,-75.3286138949841,0,0,0,
390,1.22390781563126,84.2379302510166,46.7392629484018,-225.470303478517,-52.3172403346888,-62.3190172645357,300.62707130469,45.9603449581639,-7.78987715806697,37.5783839130862,0,0,0,28.0793100836722,15.5797543161339,-75.1567678261724,0,0,0,
391,1.22705410821643,84.3838705593129,46.0307252955993,-224.919018053422,-52.5118274124172,-61.3743003941324,299.89202407123,45.9360215734478,-7.67178754926655,37.4865030089037,0,0,0,28.1279568531043,15.3435750985331,-74.9730060178074,0,0,0,
392,1.2302004008016,84.5275843883472,45.3239782698061,-224.332072813287,-52.7034458511296,-60.4319710264082,299.109430417716,45.9120692686088,-7.55399637830102,37.3886788022145,0,0,0,28.1758614627824,15.107992756602,-74.777357604429,0,0,0,
393,1.23334669338677,84.6690775483058,44.6191339223218,-223.709560815421,-52.892103397741,-59.4921785630957,298.279414420561,45.8884870752824,-7.43652232038696,37.2849268025701,0,0,0,28.2230258494353,14.8730446407739,-74.5698536051403,0,0,0,
394,1.23649298597194,84.8083562014513,43.9163040027851,-223.05158075607,-53.0778082686017,-58.5550720037135,297.40210767476,45.8652739664248,-7.31938400046418,37.175263459345,0,0,0,28.2694520671504,14.6387680009284,-74.35052691869,0,0,0,
395,1.23963927855711,84.9454268611456,43.2155999414574,-222.358236954769,-53.2605691481942,-57.6207999219433,296.477649273025,45.8424288564757,-7.20259999024291,37.0597061591281,0,0,0,28.3151422870485,14.4051999804858,-74.1194123182562,0,0,0,
396,1.24278557114228,85.0802963908172,42.5171328315554,-221.6296393378,-53.4403951877563,-56.6895104420739,295.506185783733,45.8199506015305,-7.08618880525924,36.9382732229667,0,0,0,28.3600987969391,14.1723776105185,-73.8765464459333,0,0,0,
397,1.24593186372746,85.2129720028731,41.8210134116382,-220.865903420768,-53.6172960038308,-55.7613512155175,294.487871227691,45.7978379995212,-6.97016890193969,36.8109839034614,0,0,0,28.4043240009577,13.9403378038794,-73.6219678069228,0,0,0,
398,1.24907815631263,85.343461257555,41.1273520480498,-220.067150290284,-53.79128167674,-54.8364693973997,293.422867053712,45.7760897904075,-6.85455867467497,36.677858381714,0,0,0,28.447820419185,13.7091173493499,-73.3557167634281,0,0,0,
399,1.2522244488978,85.4717720617413,40.4362587174216,-219.233506584767,-53.9623627489884,-53.9150116232288,292.311342113022,45.7547046563765,-6.7393764529036,36.5389177641278,0,0,0,28.4905906872471,13.4787529058072,-73.0778355282556,0,0,0,
400,1.25537074148297,85.5979126676927,39.7478429892358,-218.365104474366,-54.1305502235903,-52.9971239856478,291.153472632488,45.7336812220512,-6.62464049820597,36.394184079061,0,0,0,28.5326375558976,13.2492809964119,-72.788368158122,0,0,0,
401,1.25851703406814,85.7218916717447,39.0622140084539,-217.462081640008,-54.2958555623263,-52.0829520112719,289.949442186677,45.7130180547092,-6.51036900140899,36.2436802733347,0,0,0,28.5739638905816,13.020738002818,-72.4873605466693,0,0,0,
402,1.26166332665331,85.8437180129439,38.3794804782119,-216.524581251565,-54.4582906839252,-51.1726406376158,288.699441668754,45.6927136645093,-6.39658007970198,36.0874302085942,0,0,0,28.6145726709813,12.793160159404,-72.1748604171884,0,0,0,
403,1.26480961923848,85.9634009716313,37.6997506425864,-215.552751945159,-54.6178679621751,-50.2663341901151,287.403669260213,45.6727665047281,-6.28329177376439,35.9254586575266,0,0,0,28.6544669905438,12.5665835475288,-71.8509173150532,0,0,0,
404,1.26795591182365,86.0809501679707,37.0231322694327,-214.546747799595,-54.7746002239609,-49.3641763592436,286.062330399459,45.6531749720049,-6.17052204490545,35.7577912999324,0,0,0,28.6936500559902,12.3410440898109,-71.5155825998648,0,0,0,
405,1.27110220440882,86.1963755604235,36.3497326332993,-213.506728311929,-54.9285007472313,-48.4663101777324,284.675637749239,45.6339374065961,-6.05828877221655,35.5844547186548,0,0,0,28.7321251868078,12.1165775444331,-71.1689094373097,0,0,0,
406,1.27424849699399,86.3096874441699,35.6796584984189,-212.432858372188,-55.0795832588932,-47.5728779978919,283.243811162917,45.6150520926384,-5.94660974973649,35.4054763953647,0,0,0,28.7698958147233,11.893219499473,-70.8109527907293,0,0,0,
407,1.27739478957916,86.4208964494767,35.0130161017828,-211.325308237221,-55.2278619326355,-46.6840214690438,281.767077649628,45.5965172584206,-5.83550268363047,35.2208847062035,0,0,0,28.8069654831589,11.6710053672609,-70.441769412407,0,0,0,
408,1.28054108216433,86.5300135400116,34.3499111362968,-210.184253503709,-55.3733513866822,-45.7998815150623,280.245671338279,45.5783310766647,-5.72498518938279,35.0307089172848,0,0,0,28.8433378466705,11.4499703787656,-70.0614178345697,0,0,0,
409,1.2836873747495,86.6370500111055,33.6904487340238,-209.009875080323,-55.516066681474,-44.9205983120317,278.679833440431,45.5604916648158,-5.61507478900396,34.8349791800538,0,0,0,28.8790166703685,11.2301495780079,-69.6699583601077,0,0,0,
410,1.28683366733467,86.7420174879612,33.0347334495165,-207.802359159044,-55.6560233172816,-44.046311266022,277.069812212058,45.5429970853398,-5.50578890825275,34.6337265265073,0,0,0,28.9140058293204,11.0115778165055,-69.2674530530145,0,0,0,
411,1.28997995991984,86.8449279238104,32.3828692432402,-206.56189718564,-55.7932372317472,-43.177158990987,275.415862914186,45.5258453460316,-5.39714487387337,34.4269828642733,0,0,0,28.9483093079368,10.7942897477467,-68.8539657285466,0,0,0,
